;This Gcode has been generated specifically for the LulzBot Mini
;Basic settings: Layer height: 0.38 Walls: 1 Fill: 20
;Filament Diameter: 2.85
;Nozzle Size: 0.5
G21                          ; metric values
G90                          ; absolute positioning
M82                          ; set extruder to absolute mode
M107                         ; start with the fan off
G92 E0                       ; set extruder position to 0
M140 S60; get bed heating up
G28                          ; home all
M109 S140                    ; set to cleaning temp and wait
G1 Z150 E-30 F75             ; suck up XXmm of filament
M109 S140                    ; heat up rest of way
G1 X45 Y174 F11520           ; move behind scraper
G1 Z0  F1200                 ; CRITICAL: set Z to height of top of scraper
G1 X45 Y174 Z-.5 F4000       ; wiping ; plunge into wipe pad
G1 X55 Y172 Z-.5 F4000       ; wiping
G1 X45 Y174 Z0 F4000         ; wiping
G1 X55 Y172 F4000            ; wiping
G1 X45 Y174 F4000            ; wiping
G1 X55 Y172 F4000            ; wiping
G1 X45 Y174 F4000            ; wiping
G1 X55 Y172 F4000            ; wiping
G1 X60 Y174 F4000            ; wiping
G1 X80 Y172 F4000            ; wiping
G1 X60 Y174 F4000            ; wiping
G1 X80 Y172 F4000            ; wiping
G1 X60 Y174 F4000            ; wiping
G1 X90 Y172 F4000            ; wiping
G1 X80 Y174 F4000            ; wiping
G1 X100 Y172 F4000           ; wiping
G1 X80 Y174 F4000            ; wiping
G1 X100 Y172 F4000           ; wiping
G1 X80 Y174 F4000            ; wiping
G1 X100 Y172 F4000           ; wiping
G1 X110 Y174 F4000           ; wiping
G1 X100 Y172 F4000           ; wiping
G1 X110 Y174 F4000           ; wiping
G1 X100 Y172 F4000           ; wiping
G1 X110 Y174 F4000           ; wiping
G1 X115 Y172 Z-0.5 F1000     ; wipe slower and bury noz in cleanish area
G1 Z10                       ; raise z
G28 X0 Y0                    ; home x and y
M109 S140                    ; set to probing temp
M204 S300                    ; Set probing acceleration
G29                          ; Probe
M204 S2000                   ; Restore standard acceleration
G1 X5 Y15 Z10 F5000          ; get out the way
G4 S1                        ; pause
M400                         ; clear buffer
M109 S205    ; set extruder temp and wait
G4 S15                       ; wait for bed to temp up
G1 Z2 E0 F75                 ; extrude filament back into nozzle
M140 S60; get bed temping up during first layer

;Layer count: 126
;LAYER:0
M107
G0 F10500 X31.774 Y34.688 Z0.425
;TYPE:SKIRT
G1 F900 X53.623 Y34.688 E0.90975
G1 X56.623 Y37.688 E1.08640
G1 X103.878 Y37.688 E3.05400
G1 X106.878 Y34.688 E3.23066
G1 X138.562 Y34.688 E4.54992
G1 X138.562 Y61.372 E5.66098
G1 X135.562 Y64.372 E5.83764
G1 X135.562 Y91.627 E6.97248
G1 X138.562 Y94.627 E7.14913
G1 X138.562 Y121.312 E8.26024
G1 X106.878 Y121.312 E9.57950
G1 X103.878 Y118.312 E9.75616
G1 X56.623 Y118.312 E11.72376
G1 X53.623 Y121.312 E11.90041
G1 X31.771 Y121.312 E12.81028
G1 X31.775 Y116.919 E12.99320
G1 X31.774 Y34.688 E16.41713
G1 F600 E14.91713
G1 Z0.525
G0 F10500 X36.023 Y38.937
;TYPE:WALL-INNER
G1 Z0.425
G1 F600 E16.41713
G1 F900 X51.862 Y38.937 E17.07663
G1 X54.863 Y41.937 E17.25332
G1 X105.638 Y41.937 E19.36748
G1 X108.639 Y38.937 E19.54417
G1 X134.313 Y38.937 E20.61318
G1 X134.313 Y59.611 E21.47400
G1 X131.313 Y62.612 E21.65069
G1 X131.313 Y93.387 E22.93210
G1 X134.313 Y96.388 E23.10878
G1 X134.313 Y117.063 E23.96965
G1 X108.639 Y117.063 E25.03866
G1 X105.638 Y114.063 E25.21534
G1 X54.863 Y114.063 E27.32951
G1 X51.862 Y117.063 E27.50619
G1 X36.023 Y117.063 E28.16570
G1 X36.023 Y38.937 E31.41870
G0 F10500 X35.398 Y38.312
;TYPE:WALL-OUTER
G1 F900 X52.121 Y38.312 E32.11502
G1 X55.122 Y41.312 E32.29170
G1 X105.379 Y41.312 E34.38430
G1 X108.380 Y38.312 E34.56098
G1 X134.938 Y38.312 E35.66680
G1 X134.938 Y59.870 E36.56443
G1 X131.938 Y62.871 E36.74112
G1 X131.938 Y93.128 E38.00096
G1 X134.938 Y96.129 E38.17764
G1 X134.938 Y117.688 E39.07531
G1 X108.380 Y117.688 E40.18114
G1 X105.379 Y114.688 E40.35782
G1 X55.122 Y114.688 E42.45042
G1 X52.121 Y117.688 E42.62710
G1 X35.398 Y117.688 E43.32341
G1 X35.398 Y38.312 E46.62847
G0 F10500 X36.242 Y39.336
;TYPE:SKIN
G1 F900 X113.748 Y116.843 E51.19243
G0 F10500 X112.864 Y116.843
G1 F900 X36.242 Y40.220 E55.70435
G0 F10500 X36.242 Y41.104
G1 F900 X111.980 Y116.843 E60.16421
G0 F10500 X111.097 Y116.843
G1 F900 X36.242 Y41.988 E64.57204
G0 F10500 X36.242 Y42.871
G1 F900 X110.213 Y116.843 E68.92785
G0 F10500 X109.329 Y116.843
G1 F900 X36.242 Y43.755 E73.23160
G0 F10500 X36.242 Y44.639
G1 F900 X105.445 Y113.842 E77.30662
G0 F10500 X104.561 Y113.842
G1 F900 X36.242 Y45.523 E81.32958
G0 F10500 X36.242 Y46.407
G1 F900 X103.677 Y113.842 E85.30048
G0 F10500 X102.793 Y113.842
G1 F900 X36.242 Y47.291 E89.21934
G0 F10500 X36.242 Y48.175
G1 F900 X101.909 Y113.842 E93.08614
G0 F10500 X101.025 Y113.842
G1 F900 X36.242 Y49.059 E96.90088
G0 F10500 X36.242 Y49.942
G1 F900 X100.141 Y113.842 E100.66360
G0 F10500 X105.585 Y114.191
G0 X114.632 Y116.843
G1 F900 X36.945 Y39.156 E105.23819
G0 F10500 X37.829 Y39.156
G1 F900 X115.516 Y116.843 E109.81279
G0 F10500 X116.400 Y116.843
G1 F900 X38.713 Y39.156 E114.38739
G0 F10500 X39.597 Y39.156
G1 F900 X117.284 Y116.843 E118.96198
G0 F10500 X118.168 Y116.843
G1 F900 X40.481 Y39.156 E123.53658
G0 F10500 X41.365 Y39.156
G1 F900 X119.052 Y116.843 E128.11117
G0 F10500 X119.935 Y116.843
G1 F900 X42.248 Y39.156 E132.68577
G0 F10500 X43.132 Y39.156
G1 F900 X120.819 Y116.843 E137.26036
G0 F10500 X121.703 Y116.843
G1 F900 X44.016 Y39.156 E141.83496
G0 F10500 X44.900 Y39.156
G1 F900 X122.587 Y116.843 E146.40955
G0 F10500 X123.471 Y116.843
G1 F900 X45.784 Y39.156 E150.98415
G0 F10500 X46.668 Y39.156
G1 F900 X124.355 Y116.843 E155.55874
G0 F10500 X125.239 Y116.843
G1 F900 X47.552 Y39.156 E160.13334
G0 F10500 X48.436 Y39.156
G1 F900 X126.123 Y116.843 E164.70794
G0 F10500 X127.006 Y116.843
G1 F900 X49.319 Y39.156 E169.28253
G0 F10500 X50.203 Y39.156
G1 F900 X127.890 Y116.843 E173.85713
G0 F10500 X128.774 Y116.843
G1 F900 X51.087 Y39.156 E178.43172
G0 F10500 X54.971 Y42.156
G1 F900 X129.658 Y116.843 E182.82966
G0 F10500 X130.542 Y116.843
G1 F900 X55.855 Y42.156 E187.22760
G0 F10500 X56.739 Y42.156
G1 F900 X131.426 Y116.843 E191.62554
G0 F10500 X132.310 Y116.843
G1 F900 X57.623 Y42.156 E196.02348
G0 F10500 X58.507 Y42.156
G1 F900 X133.194 Y116.843 E200.42142
G0 F10500 X134.078 Y116.843
G1 F900 X59.391 Y42.156 E204.81937
G0 F10500 X60.275 Y42.156
G1 F900 X134.092 Y115.973 E209.16608
G0 F10500 X134.092 Y115.090
G1 F900 X61.159 Y42.156 E213.46076
G0 F10500 X62.042 Y42.156
G1 F900 X134.092 Y114.206 E217.70342
G0 F10500 X134.092 Y113.322
G1 F900 X62.926 Y42.156 E221.89403
G0 F10500 X63.810 Y42.156
G1 F900 X134.092 Y112.438 E226.03258
G0 F10500 X134.092 Y111.554
G1 F900 X64.694 Y42.156 E230.11908
G0 F10500 X65.578 Y42.156
G1 F900 X134.092 Y110.670 E234.15352
G0 F10500 X134.092 Y109.786
G1 F900 X66.462 Y42.156 E238.13591
G0 F10500 X67.346 Y42.156
G1 F900 X134.092 Y108.902 E242.06625
G0 F10500 X134.092 Y108.019
G1 F900 X68.230 Y42.156 E245.94456
G0 F10500 X69.114 Y42.156
G1 F900 X134.092 Y107.135 E249.77081
G0 F10500 X134.092 Y106.251
G1 F900 X69.997 Y42.156 E253.54505
G0 F10500 X70.881 Y42.156
G1 F900 X134.092 Y105.367 E257.26722
G0 F10500 X134.092 Y104.483
G1 F900 X71.765 Y42.156 E260.93735
G0 F10500 X72.649 Y42.156
G1 F900 X134.092 Y103.599 E264.55541
G0 F10500 X134.092 Y102.715
G1 F900 X73.533 Y42.156 E268.12143
G0 F10500 X74.417 Y42.156
G1 F900 X134.092 Y101.831 E271.63539
G0 F10500 X134.092 Y100.947
G1 F900 X75.301 Y42.156 E275.09729
G0 F10500 X76.185 Y42.156
G1 F900 X134.092 Y100.064 E278.50717
G0 F10500 X134.092 Y99.180
G1 F900 X77.068 Y42.156 E281.86503
G0 F10500 X77.952 Y42.156
G1 F900 X134.092 Y98.296 E285.17083
G0 F10500 X134.092 Y97.412
G1 F900 X78.836 Y42.156 E288.42458
G0 F10500 X79.720 Y42.156
G1 F900 X134.092 Y96.528 E291.62627
G0 F10500 X131.093 Y92.645
G1 F900 X80.604 Y42.156 E294.59931
G0 F10500 X81.488 Y42.156
G1 F900 X131.093 Y91.761 E297.52030
G0 F10500 X131.093 Y90.877
G1 F900 X82.372 Y42.156 E300.38923
G0 F10500 X83.256 Y42.156
G1 F900 X131.093 Y89.993 E303.20611
G0 F10500 X131.093 Y89.109
G1 F900 X84.140 Y42.156 E305.97094
G0 F10500 X85.023 Y42.156
G1 F900 X131.093 Y88.225 E308.68374
G0 F10500 X131.093 Y87.341
G1 F900 X85.907 Y42.156 E311.34449
G0 F10500 X86.791 Y42.156
G1 F900 X131.093 Y86.457 E313.95318
G0 F10500 X131.093 Y85.574
G1 F900 X87.675 Y42.156 E316.50984
G0 F10500 X88.559 Y42.156
G1 F900 X131.093 Y84.690 E319.01446
G0 F10500 X131.093 Y83.806
G1 F900 X89.443 Y42.156 E321.46702
G0 F10500 X90.327 Y42.156
G1 F900 X131.093 Y82.922 E323.86752
G0 F10500 X131.093 Y82.038
G1 F900 X91.211 Y42.156 E326.21597
G0 F10500 X92.095 Y42.156
G1 F900 X131.093 Y81.154 E328.51236
G0 F10500 X131.093 Y80.270
G1 F900 X92.978 Y42.156 E330.75674
G0 F10500 X93.862 Y42.156
G1 F900 X131.093 Y79.386 E332.94905
G0 F10500 X131.093 Y78.502
G1 F900 X94.746 Y42.156 E335.08931
G0 F10500 X95.630 Y42.156
G1 F900 X131.093 Y77.619 E337.17755
G0 F10500 X131.093 Y76.735
G1 F900 X96.514 Y42.156 E339.21373
G0 F10500 X97.398 Y42.156
G1 F900 X131.093 Y75.851 E341.19786
G0 F10500 X131.093 Y74.967
G1 F900 X98.282 Y42.156 E343.12994
G0 F10500 X99.166 Y42.156
G1 F900 X131.093 Y74.083 E345.00996
G0 F10500 X131.093 Y73.199
G1 F900 X100.049 Y42.156 E346.83795
G0 F10500 X100.933 Y42.156
G1 F900 X131.093 Y72.315 E348.61389
G0 F10500 X131.093 Y71.431
G1 F900 X101.817 Y42.156 E350.33778
G0 F10500 X102.701 Y42.156
G1 F900 X131.093 Y70.548 E352.00964
G0 F10500 X131.093 Y69.664
G1 F900 X103.585 Y42.156 E353.62945
G0 F10500 X104.469 Y42.156
G1 F900 X131.093 Y68.780 E355.19720
G0 F10500 X131.093 Y67.896
G1 F900 X105.353 Y42.156 E356.71290
G0 F10500 X105.982 Y41.901
G1 F900 X131.093 Y67.012 E358.19156
G0 F10500 X131.093 Y66.128
G1 F900 X106.424 Y41.459 E359.64419
G0 F10500 X106.866 Y41.017
G1 F900 X131.093 Y65.244 E361.07080
G0 F10500 X131.093 Y64.360
G1 F900 X107.309 Y40.576 E362.47132
G0 F10500 X107.751 Y40.134
G1 F900 X131.093 Y63.476 E363.84581
G0 F10500 X131.093 Y62.593
G1 F900 X108.192 Y39.692 E365.19433
G0 F10500 X108.634 Y39.250
G1 F900 X131.499 Y62.115 E366.54074
G0 F10500 X131.941 Y61.673
G1 F900 X109.424 Y39.156 E367.86665
G0 F10500 X110.307 Y39.156
G1 F900 X132.383 Y61.231 E369.16657
G0 F10500 X132.825 Y60.789
G1 F900 X111.191 Y39.156 E370.44045
G0 F10500 X112.075 Y39.156
G1 F900 X133.267 Y60.347 E371.68831
G0 F10500 X133.708 Y59.905
G1 F900 X112.959 Y39.156 E372.91012
G0 F10500 X113.843 Y39.156
G1 F900 X134.093 Y59.406 E374.10254
G0 F10500 X134.093 Y58.522
G1 F900 X114.727 Y39.156 E375.24291
G0 F10500 X115.611 Y39.156
G1 F900 X134.093 Y57.638 E376.33122
G0 F10500 X134.093 Y56.754
G1 F900 X116.495 Y39.156 E377.36747
G0 F10500 X117.379 Y39.156
G1 F900 X134.093 Y55.870 E378.35168
G0 F10500 X134.093 Y54.986
G1 F900 X118.262 Y39.156 E379.28386
G0 F10500 X119.146 Y39.156
G1 F900 X134.093 Y54.102 E380.16398
G0 F10500 X134.093 Y53.218
G1 F900 X120.030 Y39.156 E380.99205
G0 F10500 X120.914 Y39.156
G1 F900 X134.093 Y52.335 E381.76809
G0 F10500 X134.093 Y51.451
G1 F900 X121.798 Y39.156 E382.49208
G0 F10500 X122.682 Y39.156
G1 F900 X134.093 Y50.567 E383.16402
G0 F10500 X134.093 Y49.683
G1 F900 X123.566 Y39.156 E383.78390
G0 F10500 X124.450 Y39.156
G1 F900 X134.093 Y48.799 E384.35173
G0 F10500 X134.093 Y47.915
G1 F900 X125.333 Y39.156 E384.86753
G0 F10500 X126.217 Y39.156
G1 F900 X134.093 Y47.031 E385.33128
G0 F10500 X134.093 Y46.147
G1 F900 X127.101 Y39.156 E385.74298
G0 F10500 X127.985 Y39.156
G1 F900 X134.093 Y45.264 E386.10265
G0 F10500 X134.093 Y44.380
G1 F900 X128.869 Y39.156 E386.41026
G0 F10500 X129.753 Y39.156
G1 F900 X134.093 Y43.496 E386.66582
G0 F10500 X134.093 Y42.612
G1 F900 X130.637 Y39.156 E386.86933
G0 F10500 X131.521 Y39.156
G1 F900 X134.093 Y41.728 E387.02078
G0 F10500 X134.093 Y40.844
G1 F900 X132.405 Y39.156 E387.12018
G0 F10500 X133.288 Y39.156
G1 F900 X134.093 Y39.960 E387.16755
G0 F10500 X99.257 Y113.842
G1 F900 X36.242 Y50.826 E390.87821
G0 F10500 X36.242 Y51.710
G1 F900 X98.374 Y113.842 E394.53685
G0 F10500 X97.490 Y113.842
G1 F900 X36.242 Y52.594 E398.14344
G0 F10500 X36.242 Y53.478
G1 F900 X96.606 Y113.842 E401.69797
G0 F10500 X95.722 Y113.842
G1 F900 X36.242 Y54.362 E405.20045
G0 F10500 X36.242 Y55.246
G1 F900 X94.838 Y113.842 E408.65087
G0 F10500 X93.954 Y113.842
G1 F900 X36.242 Y56.130 E412.04924
G0 F10500 X36.242 Y57.014
G1 F900 X93.070 Y113.842 E415.39555
G0 F10500 X92.186 Y113.842
G1 F900 X36.242 Y57.897 E418.68984
G0 F10500 X36.242 Y58.781
G1 F900 X91.303 Y113.842 E421.93211
G0 F10500 X90.419 Y113.842
G1 F900 X36.242 Y59.665 E425.12232
G0 F10500 X36.242 Y60.549
G1 F900 X89.535 Y113.842 E428.26047
G0 F10500 X88.651 Y113.842
G1 F900 X36.242 Y61.433 E431.34658
G0 F10500 X36.242 Y62.317
G1 F900 X87.767 Y113.842 E434.38062
G0 F10500 X86.883 Y113.842
G1 F900 X36.242 Y63.201 E437.36262
G0 F10500 X36.242 Y64.085
G1 F900 X85.999 Y113.842 E440.29255
G0 F10500 X85.115 Y113.842
G1 F900 X36.242 Y64.968 E443.17047
G0 F10500 X36.242 Y65.852
G1 F900 X84.231 Y113.842 E445.99633
G0 F10500 X83.348 Y113.842
G1 F900 X36.242 Y66.736 E448.77016
G0 F10500 X36.242 Y67.620
G1 F900 X82.464 Y113.842 E451.49194
G0 F10500 X81.580 Y113.842
G1 F900 X36.242 Y68.504 E454.16167
G0 F10500 X36.242 Y69.388
G1 F900 X80.696 Y113.842 E456.77934
G0 F10500 X79.812 Y113.842
G1 F900 X36.242 Y70.272 E459.34496
G0 F10500 X36.242 Y71.156
G1 F900 X78.928 Y113.842 E461.85852
G0 F10500 X78.044 Y113.842
G1 F900 X36.242 Y72.040 E464.32003
G0 F10500 X36.242 Y72.923
G1 F900 X77.160 Y113.842 E466.72951
G0 F10500 X76.277 Y113.842
G1 F900 X36.242 Y73.807 E469.08697
G0 F10500 X36.242 Y74.691
G1 F900 X75.393 Y113.842 E471.39238
G0 F10500 X74.509 Y113.842
G1 F900 X36.242 Y75.575 E473.64573
G0 F10500 X36.242 Y76.459
G1 F900 X73.625 Y113.842 E475.84703
G0 F10500 X72.741 Y113.842
G1 F900 X36.242 Y77.343 E477.99627
G0 F10500 X36.242 Y78.227
G1 F900 X71.857 Y113.842 E480.09346
G0 F10500 X70.973 Y113.842
G1 F900 X36.242 Y79.111 E482.13859
G0 F10500 X36.242 Y79.994
G1 F900 X70.089 Y113.842 E484.13170
G0 F10500 X69.205 Y113.842
G1 F900 X36.242 Y80.878 E486.07275
G0 F10500 X36.242 Y81.762
G1 F900 X68.322 Y113.842 E487.96178
G0 F10500 X67.438 Y113.842
G1 F900 X36.242 Y82.646 E489.79876
G0 F10500 X36.242 Y83.530
G1 F900 X66.554 Y113.842 E491.58368
G0 F10500 X65.670 Y113.842
G1 F900 X36.242 Y84.414 E493.31654
G0 F10500 X36.242 Y85.298
G1 F900 X64.786 Y113.842 E494.99735
G0 F10500 X63.902 Y113.842
G1 F900 X36.242 Y86.182 E496.62611
G0 F10500 X36.242 Y87.066
G1 F900 X63.018 Y113.842 E498.20282
G0 F10500 X62.134 Y113.842
G1 F900 X36.242 Y87.949 E499.72749
G0 F10500 X36.242 Y88.833
G1 F900 X61.251 Y113.842 E501.20015
G0 F10500 X60.367 Y113.842
G1 F900 X36.242 Y89.717 E502.62075
G0 F10500 X36.242 Y90.601
G1 F900 X59.483 Y113.842 E503.98929
G0 F10500 X58.599 Y113.842
G1 F900 X36.242 Y91.485 E505.30578
G0 F10500 X36.242 Y92.369
G1 F900 X57.715 Y113.842 E506.57022
G0 F10500 X56.831 Y113.842
G1 F900 X36.242 Y93.253 E507.78260
G0 F10500 X36.242 Y94.137
G1 F900 X55.947 Y113.842 E508.94293
G0 F10500 X55.063 Y113.842
G1 F900 X36.242 Y95.021 E510.05121
G0 F10500 X36.242 Y95.904
G1 F900 X54.476 Y114.139 E511.12494
G0 F10500 X54.034 Y114.580
G1 F900 X36.242 Y96.788 E512.17262
G0 F10500 X36.242 Y97.672
G1 F900 X53.592 Y115.022 E513.19428
G0 F10500 X53.149 Y115.464
G1 F900 X36.242 Y98.556 E514.18988
G0 F10500 X36.242 Y99.440
G1 F900 X52.707 Y115.906 E515.15945
G0 F10500 X52.265 Y116.348
G1 F900 X36.242 Y100.324 E516.10299
G0 F10500 X36.242 Y101.208
G1 F900 X51.823 Y116.789 E517.02048
G0 F10500 X50.993 Y116.843
G1 F900 X36.242 Y102.092 E517.88909
G0 F10500 X36.242 Y102.975
G1 F900 X50.109 Y116.843 E518.70567
G0 F10500 X49.225 Y116.843
G1 F900 X36.242 Y103.859 E519.47021
G0 F10500 X36.242 Y104.743
G1 F900 X48.341 Y116.843 E520.18269
G0 F10500 X47.457 Y116.843
G1 F900 X36.242 Y105.627 E520.84311
G0 F10500 X36.242 Y106.511
G1 F900 X46.573 Y116.843 E521.45148
G0 F10500 X45.689 Y116.843
G1 F900 X36.242 Y107.395 E522.00780
G0 F10500 X36.242 Y108.279
G1 F900 X44.805 Y116.843 E522.51206
G0 F10500 X43.921 Y116.843
G1 F900 X36.242 Y109.163 E522.96426
G0 F10500 X36.242 Y110.047
G1 F900 X43.038 Y116.843 E523.36445
G0 F10500 X42.154 Y116.843
G1 F900 X36.242 Y110.930 E523.71260
G0 F10500 X36.242 Y111.814
G1 F900 X41.270 Y116.843 E524.00871
G0 F10500 X40.386 Y116.843
G1 F900 X36.242 Y112.698 E524.25275
G0 F10500 X36.242 Y113.582
G1 F900 X39.502 Y116.843 E524.44475
G0 F10500 X38.618 Y116.843
G1 F900 X36.242 Y114.466 E524.58469
G0 F10500 X36.242 Y115.350
G1 F900 X37.734 Y116.843 E524.67257
G0 F10500 X36.850 Y116.843
G1 F900 X36.242 Y116.234 E524.70841
;LAYER:1
M106 S191
G0 F10500 X35.570 Y117.250 Z0.805
;TYPE:WALL-INNER
G1 F1140 X35.570 Y38.750 E527.04640
G1 X51.941 Y38.750 E527.53399
G1 X54.940 Y41.750 E527.66032
G1 X105.561 Y41.750 E529.16799
G1 X108.560 Y38.750 E529.29433
G1 X134.500 Y38.750 E530.06691
G1 X134.500 Y59.690 E530.69057
G1 X131.500 Y62.689 E530.81691
G1 X131.500 Y93.310 E531.72891
G1 X134.500 Y96.309 E531.85525
G1 X134.500 Y117.250 E532.47894
G1 X108.560 Y117.250 E533.25152
G1 X105.561 Y114.250 E533.37786
G1 X54.940 Y114.250 E534.88553
G1 X51.941 Y117.250 E535.01187
G1 X35.570 Y117.250 E535.49945
G0 F10500 X35.070 Y117.750
;TYPE:WALL-OUTER
G1 F1080 X35.070 Y38.250 E537.86723
G1 X52.147 Y38.250 E538.37584
G1 X55.147 Y41.250 E538.50220
G1 X105.354 Y41.250 E539.99753
G1 X108.354 Y38.250 E540.12389
G1 X135.000 Y38.250 E540.91750
G1 X135.000 Y59.896 E541.56219
G1 X132.000 Y62.896 E541.68855
G1 X132.000 Y93.103 E542.58822
G1 X135.000 Y96.103 E542.71458
G1 X135.000 Y117.750 E543.35930
G1 X108.354 Y117.750 E544.15291
G1 X105.354 Y114.750 E544.27927
G1 X55.147 Y114.750 E545.77460
G1 X52.147 Y117.750 E545.90096
G1 X35.070 Y117.750 E546.40957
G0 F10500 X36.014 Y117.074
;TYPE:SKIN
G1 F1380 X114.163 Y38.925 E549.70121
G0 F10500 X114.870 Y38.925
G1 F1380 X36.721 Y117.074 E552.99286
G0 F10500 X37.428 Y117.074
G1 F1380 X115.577 Y38.925 E556.28450
G0 F10500 X116.284 Y38.925
G1 F1380 X38.135 Y117.074 E559.57614
G0 F10500 X38.842 Y117.074
G1 F1380 X116.991 Y38.925 E562.86778
G0 F10500 X117.698 Y38.925
G1 F1380 X39.549 Y117.074 E566.15942
G0 F10500 X35.745 Y116.635
G1 F1380 X113.455 Y38.925 E569.43257
G0 F10500 X112.748 Y38.925
G1 F1380 X35.745 Y115.928 E572.67594
G0 F10500 X35.745 Y115.221
G1 F1380 X112.041 Y38.925 E575.88953
G0 F10500 X111.334 Y38.925
G1 F1380 X35.745 Y114.514 E579.07334
G0 F10500 X35.745 Y113.807
G1 F1380 X110.627 Y38.925 E582.22738
G0 F10500 X109.920 Y38.925
G1 F1380 X35.745 Y113.100 E585.35163
G0 F10500 X35.745 Y112.393
G1 F1380 X109.213 Y38.925 E588.44611
G0 F10500 X118.405 Y38.925
G1 F1380 X40.257 Y117.074 E591.73773
G0 F10500 X40.964 Y117.074
G1 F1380 X119.112 Y38.925 E595.02935
G0 F10500 X119.819 Y38.925
G1 F1380 X41.671 Y117.074 E598.32097
G0 F10500 X42.378 Y117.074
G1 F1380 X120.527 Y38.925 E601.61261
G0 F10500 X121.234 Y38.925
G1 F1380 X43.085 Y117.074 E604.90425
G0 F10500 X43.792 Y117.074
G1 F1380 X121.941 Y38.925 E608.19589
G0 F10500 X122.648 Y38.925
G1 F1380 X44.499 Y117.074 E611.48753
G0 F10500 X45.206 Y117.074
G1 F1380 X123.355 Y38.925 E614.77917
G0 F10500 X124.062 Y38.925
G1 F1380 X45.913 Y117.074 E618.07081
G0 F10500 X46.620 Y117.074
G1 F1380 X124.769 Y38.925 E621.36246
G0 F10500 X125.476 Y38.925
G1 F1380 X47.328 Y117.074 E624.65407
G0 F10500 X48.035 Y117.074
G1 F1380 X126.183 Y38.925 E627.94569
G0 F10500 X126.891 Y38.925
G1 F1380 X48.742 Y117.074 E631.23734
G0 F10500 X49.449 Y117.074
G1 F1380 X127.598 Y38.925 E634.52898
G0 F10500 X128.305 Y38.925
G1 F1380 X50.156 Y117.074 E637.82062
G0 F10500 X50.863 Y117.074
G1 F1380 X129.012 Y38.925 E641.11226
G0 F10500 X129.719 Y38.925
G1 F1380 X51.570 Y117.074 E644.40390
G0 F10500 X55.277 Y114.074
G1 F1380 X130.426 Y38.925 E647.56918
G0 F10500 X131.133 Y38.925
G1 F1380 X55.984 Y114.074 E650.73446
G0 F10500 X56.691 Y114.074
G1 F1380 X131.840 Y38.925 E653.89974
G0 F10500 X132.547 Y38.925
G1 F1380 X57.398 Y114.074 E657.06502
G0 F10500 X58.105 Y114.074
G1 F1380 X133.254 Y38.925 E660.23030
G0 F10500 X133.962 Y38.925
G1 F1380 X58.812 Y114.074 E663.39560
G0 F10500 X59.520 Y114.074
G1 F1380 X134.324 Y39.270 E666.54635
G0 F10500 X134.324 Y39.977
G1 F1380 X60.227 Y114.074 E669.66732
G0 F10500 X60.934 Y114.074
G1 F1380 X134.324 Y40.684 E672.75851
G0 F10500 X134.324 Y41.391
G1 F1380 X61.641 Y114.074 E675.81993
G0 F10500 X62.348 Y114.074
G1 F1380 X134.324 Y42.099 E678.85154
G0 F10500 X134.324 Y42.806
G1 F1380 X63.055 Y114.074 E681.85337
G0 F10500 X63.762 Y114.074
G1 F1380 X134.324 Y43.513 E684.82543
G0 F10500 X134.324 Y44.220
G1 F1380 X64.469 Y114.074 E687.76770
G0 F10500 X65.176 Y114.074
G1 F1380 X134.324 Y44.927 E690.68020
G0 F10500 X134.324 Y45.634
G1 F1380 X65.883 Y114.074 E693.56292
G0 F10500 X66.591 Y114.074
G1 F1380 X134.324 Y46.341 E696.41583
G0 F10500 X134.324 Y47.048
G1 F1380 X67.298 Y114.074 E699.23897
G0 F10500 X68.005 Y114.074
G1 F1380 X134.324 Y47.755 E702.03233
G0 F10500 X134.324 Y48.462
G1 F1380 X68.712 Y114.074 E704.79592
G0 F10500 X69.419 Y114.074
G1 F1380 X134.324 Y49.170 E707.52970
G0 F10500 X134.324 Y49.877
G1 F1380 X70.126 Y114.074 E710.23370
G0 F10500 X70.833 Y114.074
G1 F1380 X134.324 Y50.584 E712.90792
G0 F10500 X134.324 Y51.291
G1 F1380 X71.540 Y114.074 E715.55237
G0 F10500 X72.247 Y114.074
G1 F1380 X134.324 Y51.998 E718.16703
G0 F10500 X134.324 Y52.705
G1 F1380 X72.955 Y114.074 E720.75190
G0 F10500 X73.662 Y114.074
G1 F1380 X134.324 Y53.412 E723.30699
G0 F10500 X134.324 Y54.119
G1 F1380 X74.369 Y114.074 E725.83230
G0 F10500 X75.076 Y114.074
G1 F1380 X134.324 Y54.826 E728.32783
G0 F10500 X134.324 Y55.534
G1 F1380 X75.783 Y114.074 E730.79356
G0 F10500 X76.490 Y114.074
G1 F1380 X134.324 Y56.241 E733.22951
G0 F10500 X134.324 Y56.948
G1 F1380 X77.197 Y114.074 E735.63568
G0 F10500 X77.904 Y114.074
G1 F1380 X134.324 Y57.655 E738.01207
G0 F10500 X134.324 Y58.362
G1 F1380 X78.611 Y114.074 E740.35868
G0 F10500 X79.318 Y114.074
G1 F1380 X134.324 Y59.069 E742.67552
G0 F10500 X131.323 Y62.776
G1 F1380 X80.026 Y114.074 E744.83617
G0 F10500 X80.733 Y114.074
G1 F1380 X131.323 Y63.484 E746.96703
G0 F10500 X131.323 Y64.191
G1 F1380 X81.440 Y114.074 E749.06810
G0 F10500 X82.147 Y114.074
G1 F1380 X131.323 Y64.898 E751.13940
G0 F10500 X131.323 Y65.605
G1 F1380 X82.854 Y114.074 E753.18092
G0 F10500 X83.561 Y114.074
G1 F1380 X131.323 Y66.312 E755.19265
G0 F10500 X131.323 Y67.019
G1 F1380 X84.268 Y114.074 E757.17461
G0 F10500 X84.975 Y114.074
G1 F1380 X131.323 Y67.726 E759.12679
G0 F10500 X131.323 Y68.433
G1 F1380 X85.682 Y114.074 E761.04920
G0 F10500 X86.390 Y114.074
G1 F1380 X131.323 Y69.140 E762.94180
G0 F10500 X131.323 Y69.848
G1 F1380 X87.097 Y114.074 E764.80460
G0 F10500 X87.804 Y114.074
G1 F1380 X131.323 Y70.555 E766.63762
G0 F10500 X131.323 Y71.262
G1 F1380 X88.511 Y114.074 E768.44087
G0 F10500 X89.218 Y114.074
G1 F1380 X131.323 Y71.969 E770.21433
G0 F10500 X131.323 Y72.676
G1 F1380 X89.925 Y114.074 E771.95802
G0 F10500 X90.632 Y114.074
G1 F1380 X131.323 Y73.383 E773.67193
G0 F10500 X131.323 Y74.090
G1 F1380 X91.339 Y114.074 E775.35605
G0 F10500 X92.046 Y114.074
G1 F1380 X131.323 Y74.797 E777.01040
G0 F10500 X131.323 Y75.504
G1 F1380 X92.754 Y114.074 E778.63495
G0 F10500 X93.461 Y114.074
G1 F1380 X131.323 Y76.211 E780.22972
G0 F10500 X131.323 Y76.919
G1 F1380 X94.168 Y114.074 E781.79470
G0 F10500 X94.875 Y114.074
G1 F1380 X131.323 Y77.626 E783.32989
G0 F10500 X131.323 Y78.333
G1 F1380 X95.582 Y114.074 E784.83530
G0 F10500 X96.289 Y114.074
G1 F1380 X131.323 Y79.040 E786.31093
G0 F10500 X131.323 Y79.747
G1 F1380 X96.996 Y114.074 E787.75679
G0 F10500 X97.703 Y114.074
G1 F1380 X131.323 Y80.454 E789.17287
G0 F10500 X131.323 Y81.161
G1 F1380 X98.410 Y114.074 E790.55916
G0 F10500 X99.117 Y114.074
G1 F1380 X131.323 Y81.868 E791.91568
G0 F10500 X131.323 Y82.575
G1 F1380 X99.825 Y114.074 E793.24240
G0 F10500 X100.532 Y114.074
G1 F1380 X131.323 Y83.283 E794.53932
G0 F10500 X131.323 Y83.990
G1 F1380 X101.239 Y114.074 E795.80646
G0 F10500 X101.946 Y114.074
G1 F1380 X131.323 Y84.697 E797.04382
G0 F10500 X131.323 Y85.404
G1 F1380 X102.653 Y114.074 E798.25140
G0 F10500 X103.360 Y114.074
G1 F1380 X131.323 Y86.111 E799.42921
G0 F10500 X131.323 Y86.818
G1 F1380 X104.067 Y114.074 E800.57723
G0 F10500 X104.774 Y114.074
G1 F1380 X131.323 Y87.525 E801.69548
G0 F10500 X131.323 Y88.232
G1 F1380 X105.481 Y114.074 E802.78394
G0 F10500 X105.911 Y114.351
G1 F1380 X131.323 Y88.939 E803.85430
G0 F10500 X131.323 Y89.646
G1 F1380 X106.265 Y114.705 E804.90976
G0 F10500 X106.618 Y115.059
G1 F1380 X131.323 Y90.354 E805.95034
G0 F10500 X131.323 Y91.061
G1 F1380 X106.972 Y115.412 E806.97601
G0 F10500 X107.326 Y115.766
G1 F1380 X131.323 Y91.768 E807.98678
G0 F10500 X131.323 Y92.475
G1 F1380 X107.679 Y116.119 E808.98267
G0 F10500 X108.033 Y116.473
G1 F1380 X131.323 Y93.182 E809.96367
G0 F10500 X131.577 Y93.635
G1 F1380 X108.386 Y116.826 E810.94047
G0 F10500 X108.845 Y117.074
G1 F1380 X131.931 Y93.989 E811.91283
G0 F10500 X132.284 Y94.342
G1 F1380 X109.552 Y117.074 E812.87031
G0 F10500 X110.259 Y117.074
G1 F1380 X132.638 Y94.696 E813.81289
G0 F10500 X132.991 Y95.050
G1 F1380 X110.966 Y117.074 E814.74056
G0 F10500 X111.674 Y117.074
G1 F1380 X133.345 Y95.403 E815.65335
G0 F10500 X133.699 Y95.757
G1 F1380 X112.381 Y117.074 E816.55124
G0 F10500 X113.088 Y117.074
G1 F1380 X134.052 Y96.110 E817.43425
G0 F10500 X134.324 Y96.546
G1 F1380 X113.795 Y117.074 E818.29891
G0 F10500 X114.502 Y117.074
G1 F1380 X134.324 Y97.253 E819.13379
G0 F10500 X134.324 Y97.960
G1 F1380 X115.209 Y117.074 E819.93890
G0 F10500 X115.916 Y117.074
G1 F1380 X134.324 Y98.667 E820.71422
G0 F10500 X134.324 Y99.374
G1 F1380 X116.623 Y117.074 E821.45977
G0 F10500 X117.330 Y117.074
G1 F1380 X134.324 Y100.081 E822.17554
G0 F10500 X134.324 Y100.788
G1 F1380 X118.038 Y117.074 E822.86150
G0 F10500 X118.745 Y117.074
G1 F1380 X134.324 Y101.495 E823.51769
G0 F10500 X134.324 Y102.203
G1 F1380 X119.452 Y117.074 E824.14408
G0 F10500 X120.159 Y117.074
G1 F1380 X134.324 Y102.910 E824.74069
G0 F10500 X134.324 Y103.617
G1 F1380 X120.866 Y117.074 E825.30752
G0 F10500 X121.573 Y117.074
G1 F1380 X134.324 Y104.324 E825.84457
G0 F10500 X134.324 Y105.031
G1 F1380 X122.280 Y117.074 E826.35184
G0 F10500 X122.987 Y117.074
G1 F1380 X134.324 Y105.738 E826.82934
G0 F10500 X134.324 Y106.445
G1 F1380 X123.694 Y117.074 E827.27705
G0 F10500 X124.402 Y117.074
G1 F1380 X134.324 Y107.152 E827.69497
G0 F10500 X134.324 Y107.859
G1 F1380 X125.109 Y117.074 E828.08311
G0 F10500 X125.816 Y117.074
G1 F1380 X134.324 Y108.567 E828.44144
G0 F10500 X134.324 Y109.274
G1 F1380 X126.523 Y117.074 E828.77000
G0 F10500 X127.230 Y117.074
G1 F1380 X134.324 Y109.981 E829.06878
G0 F10500 X134.324 Y110.688
G1 F1380 X127.937 Y117.074 E829.33778
G0 F10500 X128.644 Y117.074
G1 F1380 X134.324 Y111.395 E829.57700
G0 F10500 X134.324 Y112.102
G1 F1380 X129.351 Y117.074 E829.78644
G0 F10500 X130.058 Y117.074
G1 F1380 X134.324 Y112.809 E829.96610
G0 F10500 X134.324 Y113.516
G1 F1380 X130.765 Y117.074 E830.11599
G0 F10500 X131.473 Y117.074
G1 F1380 X134.324 Y114.223 E830.23607
G0 F10500 X134.324 Y114.931
G1 F1380 X132.180 Y117.074 E830.32636
G0 F10500 X132.887 Y117.074
G1 F1380 X134.324 Y115.638 E830.38686
G0 F10500 X134.324 Y116.345
G1 F1380 X133.594 Y117.074 E830.41759
G0 F10500 X105.507 Y41.924
G1 F1380 X35.745 Y111.686 E833.35597
G0 F10500 X35.745 Y110.978
G1 F1380 X104.800 Y41.924 E836.26455
G0 F10500 X104.093 Y41.924
G1 F1380 X35.745 Y110.271 E839.14335
G0 F10500 X35.745 Y109.564
G1 F1380 X103.386 Y41.924 E841.99237
G0 F10500 X102.678 Y41.924
G1 F1380 X35.745 Y108.857 E844.81159
G0 F10500 X35.745 Y108.150
G1 F1380 X101.971 Y41.924 E847.60104
G0 F10500 X101.264 Y41.924
G1 F1380 X35.745 Y107.443 E850.36070
G0 F10500 X35.745 Y106.736
G1 F1380 X100.557 Y41.924 E853.09059
G0 F10500 X99.850 Y41.924
G1 F1380 X35.745 Y106.029 E855.79069
G0 F10500 X35.745 Y105.322
G1 F1380 X99.143 Y41.924 E858.46102
G0 F10500 X98.436 Y41.924
G1 F1380 X35.745 Y104.615 E861.10157
G0 F10500 X35.745 Y103.907
G1 F1380 X97.729 Y41.924 E863.71232
G0 F10500 X97.022 Y41.924
G1 F1380 X35.745 Y103.200 E866.29329
G0 F10500 X35.745 Y102.493
G1 F1380 X96.315 Y41.924 E868.84448
G0 F10500 X95.607 Y41.924
G1 F1380 X35.745 Y101.786 E871.36587
G0 F10500 X35.745 Y101.079
G1 F1380 X94.900 Y41.924 E873.85748
G0 F10500 X94.193 Y41.924
G1 F1380 X35.745 Y100.372 E876.31932
G0 F10500 X35.745 Y99.665
G1 F1380 X93.486 Y41.924 E878.75137
G0 F10500 X92.779 Y41.924
G1 F1380 X35.745 Y98.958 E881.15365
G0 F10500 X35.745 Y98.251
G1 F1380 X92.072 Y41.924 E883.52614
G0 F10500 X91.365 Y41.924
G1 F1380 X35.745 Y97.543 E885.86884
G0 F10500 X35.745 Y96.836
G1 F1380 X90.658 Y41.924 E888.18176
G0 F10500 X89.951 Y41.924
G1 F1380 X35.745 Y96.129 E890.46490
G0 F10500 X35.745 Y95.422
G1 F1380 X89.243 Y41.924 E892.71824
G0 F10500 X88.536 Y41.924
G1 F1380 X35.745 Y94.715 E894.94180
G0 F10500 X35.745 Y94.008
G1 F1380 X87.829 Y41.924 E897.13558
G0 F10500 X87.122 Y41.924
G1 F1380 X35.745 Y93.301 E899.29958
G0 F10500 X35.745 Y92.594
G1 F1380 X86.415 Y41.924 E901.43380
G0 F10500 X85.708 Y41.924
G1 F1380 X35.745 Y91.887 E903.53825
G0 F10500 X35.745 Y91.180
G1 F1380 X85.001 Y41.924 E905.61291
G0 F10500 X84.294 Y41.924
G1 F1380 X35.745 Y90.472 E907.65778
G0 F10500 X35.745 Y89.765
G1 F1380 X83.587 Y41.924 E909.67287
G0 F10500 X82.879 Y41.924
G1 F1380 X35.745 Y89.058 E911.65815
G0 F10500 X35.745 Y88.351
G1 F1380 X82.172 Y41.924 E913.61366
G0 F10500 X81.465 Y41.924
G1 F1380 X35.745 Y87.644 E915.53939
G0 F10500 X35.745 Y86.937
G1 F1380 X80.758 Y41.924 E917.43534
G0 F10500 X80.051 Y41.924
G1 F1380 X35.745 Y86.230 E919.30151
G0 F10500 X35.745 Y85.523
G1 F1380 X79.344 Y41.924 E921.13790
G0 F10500 X78.637 Y41.924
G1 F1380 X35.745 Y84.816 E922.94452
G0 F10500 X35.745 Y84.108
G1 F1380 X77.930 Y41.924 E924.72133
G0 F10500 X77.223 Y41.924
G1 F1380 X35.745 Y83.401 E926.46837
G0 F10500 X35.745 Y82.694
G1 F1380 X76.516 Y41.924 E928.18562
G0 F10500 X75.808 Y41.924
G1 F1380 X35.745 Y81.987 E929.87308
G0 F10500 X35.745 Y81.280
G1 F1380 X75.101 Y41.924 E931.53076
G0 F10500 X74.394 Y41.924
G1 F1380 X35.745 Y80.573 E933.15865
G0 F10500 X35.745 Y79.866
G1 F1380 X73.687 Y41.924 E934.75677
G0 F10500 X72.980 Y41.924
G1 F1380 X35.745 Y79.159 E936.32511
G0 F10500 X35.745 Y78.452
G1 F1380 X72.273 Y41.924 E937.86368
G0 F10500 X71.566 Y41.924
G1 F1380 X35.745 Y77.744 E939.37244
G0 F10500 X35.745 Y77.037
G1 F1380 X70.859 Y41.924 E940.85142
G0 F10500 X70.152 Y41.924
G1 F1380 X35.745 Y76.330 E942.30062
G0 F10500 X35.745 Y75.623
G1 F1380 X69.444 Y41.924 E943.72003
G0 F10500 X68.737 Y41.924
G1 F1380 X35.745 Y74.916 E945.10965
G0 F10500 X35.745 Y74.209
G1 F1380 X68.030 Y41.924 E946.46950
G0 F10500 X67.323 Y41.924
G1 F1380 X35.745 Y73.502 E947.79957
G0 F10500 X35.745 Y72.795
G1 F1380 X66.616 Y41.924 E949.09985
G0 F10500 X65.909 Y41.924
G1 F1380 X35.745 Y72.088 E950.37036
G0 F10500 X35.745 Y71.381
G1 F1380 X65.202 Y41.924 E951.61110
G0 F10500 X64.495 Y41.924
G1 F1380 X35.745 Y70.673 E952.82203
G0 F10500 X35.745 Y69.966
G1 F1380 X63.788 Y41.924 E954.00318
G0 F10500 X63.080 Y41.924
G1 F1380 X35.745 Y69.259 E955.15453
G0 F10500 X35.745 Y68.552
G1 F1380 X62.373 Y41.924 E956.27610
G0 F10500 X61.666 Y41.924
G1 F1380 X35.745 Y67.845 E957.36790
G0 F10500 X35.745 Y67.138
G1 F1380 X60.959 Y41.924 E958.42991
G0 F10500 X60.252 Y41.924
G1 F1380 X35.745 Y66.431 E959.46215
G0 F10500 X35.745 Y65.724
G1 F1380 X59.545 Y41.924 E960.46461
G0 F10500 X58.838 Y41.924
G1 F1380 X35.745 Y65.017 E961.43728
G0 F10500 X35.745 Y64.309
G1 F1380 X58.131 Y41.924 E962.38016
G0 F10500 X57.424 Y41.924
G1 F1380 X35.745 Y63.602 E963.29326
G0 F10500 X35.745 Y62.895
G1 F1380 X56.717 Y41.924 E964.17658
G0 F10500 X56.009 Y41.924
G1 F1380 X35.745 Y62.188 E965.03010
G0 F10500 X35.745 Y61.481
G1 F1380 X55.302 Y41.924 E965.85385
G0 F10500 X54.730 Y41.789
G1 F1380 X35.745 Y60.774 E966.65350
G0 F10500 X35.745 Y60.067
G1 F1380 X54.377 Y41.435 E967.43828
G0 F10500 X54.023 Y41.082
G1 F1380 X35.745 Y59.360 E968.20815
G0 F10500 X35.745 Y58.653
G1 F1380 X53.670 Y40.728 E968.96315
G0 F10500 X53.316 Y40.375
G1 F1380 X35.745 Y57.945 E969.70322
G0 F10500 X35.745 Y57.238
G1 F1380 X52.963 Y40.021 E970.42842
G0 F10500 X52.609 Y39.667
G1 F1380 X35.745 Y56.531 E971.13873
G0 F10500 X35.745 Y55.824
G1 F1380 X52.255 Y39.314 E971.83414
G0 F10500 X51.902 Y38.960
G1 F1380 X35.745 Y55.117 E972.51467
G0 F10500 X35.745 Y54.410
G1 F1380 X51.232 Y38.924 E973.16696
G0 F10500 X50.524 Y38.924
G1 F1380 X35.745 Y53.703 E973.78946
G0 F10500 X35.745 Y52.996
G1 F1380 X49.817 Y38.924 E974.38217
G0 F10500 X49.110 Y38.924
G1 F1380 X35.745 Y52.289 E974.94510
G0 F10500 X35.745 Y51.582
G1 F1380 X48.403 Y38.924 E975.47826
G0 F10500 X47.696 Y38.924
G1 F1380 X35.745 Y50.874 E975.98162
G0 F10500 X35.745 Y50.167
G1 F1380 X46.989 Y38.924 E976.45519
G0 F10500 X46.282 Y38.924
G1 F1380 X35.745 Y49.460 E976.89899
G0 F10500 X35.745 Y48.753
G1 F1380 X45.575 Y38.924 E977.31301
G0 F10500 X44.868 Y38.924
G1 F1380 X35.745 Y48.046 E977.69725
G0 F10500 X35.745 Y47.339
G1 F1380 X44.160 Y38.924 E978.05169
G0 F10500 X43.453 Y38.924
G1 F1380 X35.745 Y46.632 E978.37635
G0 F10500 X35.745 Y45.925
G1 F1380 X42.746 Y38.924 E978.67123
G0 F10500 X42.039 Y38.924
G1 F1380 X35.745 Y45.218 E978.93634
G0 F10500 X35.745 Y44.510
G1 F1380 X41.332 Y38.924 E979.17164
G0 F10500 X40.625 Y38.924
G1 F1380 X35.745 Y43.803 E979.37717
G0 F10500 X35.745 Y43.096
G1 F1380 X39.918 Y38.924 E979.55291
G0 F10500 X39.211 Y38.924
G1 F1380 X35.745 Y42.389 E979.69888
G0 F10500 X35.745 Y41.682
G1 F1380 X38.504 Y38.924 E979.81507
G0 F10500 X37.796 Y38.924
G1 F1380 X35.745 Y40.975 E979.90146
G0 F10500 X35.745 Y40.268
G1 F1380 X37.089 Y38.924 E979.95806
G0 F10500 X36.382 Y38.924
G1 F1380 X35.745 Y39.561 E979.98490
;LAYER:2
G0 F10500 X35.304 Y38.750 Z1.185
;TYPE:WALL-INNER
G1 F1440 X51.941 Y38.750 E980.48040
G1 X54.940 Y41.750 E980.60674
G1 X105.561 Y41.750 E982.11441
G1 X108.560 Y38.750 E982.24074
G1 X134.500 Y38.750 E983.01333
G1 X134.500 Y59.690 E983.63699
G1 X131.500 Y62.689 E983.76333
G1 X131.500 Y93.310 E984.67533
G1 X134.500 Y96.309 E984.80166
G1 X134.500 Y117.250 E985.42536
G1 X108.560 Y117.250 E986.19794
G1 X105.561 Y114.250 E986.32428
G1 X54.940 Y114.250 E987.83194
G1 X51.941 Y117.250 E987.95828
G1 X35.304 Y117.250 E988.45379
G1 X35.304 Y38.750 E990.79178
G0 F10500 X34.804 Y38.250
;TYPE:WALL-OUTER
G1 F1320 X52.147 Y38.250 E991.30832
G1 X55.147 Y41.250 E991.43468
G1 X105.354 Y41.250 E992.93001
G1 X108.354 Y38.250 E993.05637
G1 X135.000 Y38.250 E993.84998
G1 X135.000 Y59.896 E994.49467
G1 X132.000 Y62.896 E994.62103
G1 X132.000 Y93.103 E995.52070
G1 X135.000 Y96.103 E995.64706
G1 X135.000 Y117.750 E996.29178
G1 X108.354 Y117.750 E997.08539
G1 X105.354 Y114.750 E997.21175
G1 X55.147 Y114.750 E998.70708
G1 X52.147 Y117.750 E998.83344
G1 X34.804 Y117.750 E999.34997
G1 X34.804 Y38.250 E1001.71775
G0 F10500 X35.742 Y38.924
;TYPE:SKIN
G1 F1920 X113.892 Y117.074 E1005.00944
G0 F10500 X113.185 Y117.074
G1 F1920 X35.478 Y39.367 E1008.28246
G0 F10500 X36.449 Y38.924
G1 F1920 X114.599 Y117.074 E1011.57414
G0 F10500 X115.306 Y117.074
G1 F1920 X37.157 Y38.924 E1014.86580
G0 F10500 X37.864 Y38.924
G1 F1920 X116.013 Y117.074 E1018.15747
G0 F10500 X116.720 Y117.074
G1 F1920 X38.571 Y38.924 E1021.44913
G0 F10500 X39.278 Y38.924
G1 F1920 X117.427 Y117.074 E1024.74079
G0 F10500 X118.134 Y117.074
G1 F1920 X39.985 Y38.924 E1028.03245
G0 F10500 X40.692 Y38.924
G1 F1920 X118.842 Y117.074 E1031.32413
G0 F10500 X119.549 Y117.074
G1 F1920 X41.399 Y38.924 E1034.61582
G0 F10500 X42.106 Y38.924
G1 F1920 X120.256 Y117.074 E1037.90750
G0 F10500 X120.963 Y117.074
G1 F1920 X42.813 Y38.924 E1041.19918
G0 F10500 X43.521 Y38.924
G1 F1920 X121.670 Y117.074 E1044.49084
G0 F10500 X122.377 Y117.074
G1 F1920 X44.228 Y38.924 E1047.78251
G0 F10500 X44.935 Y38.924
G1 F1920 X123.084 Y117.074 E1051.07417
G0 F10500 X123.791 Y117.074
G1 F1920 X45.642 Y38.924 E1054.36583
G0 F10500 X46.349 Y38.924
G1 F1920 X124.498 Y117.074 E1057.65749
G0 F10500 X125.205 Y117.074
G1 F1920 X47.056 Y38.924 E1060.94915
G0 F10500 X47.763 Y38.924
G1 F1920 X125.913 Y117.074 E1064.24084
G0 F10500 X126.620 Y117.074
G1 F1920 X48.470 Y38.924 E1067.53252
G0 F10500 X49.177 Y38.924
G1 F1920 X127.327 Y117.074 E1070.82420
G0 F10500 X128.034 Y117.074
G1 F1920 X49.884 Y38.924 E1074.11588
G0 F10500 X50.592 Y38.924
G1 F1920 X128.741 Y117.074 E1077.40755
G0 F10500 X129.448 Y117.074
G1 F1920 X51.299 Y38.924 E1080.69921
G0 F10500 X55.006 Y41.925
G1 F1920 X130.155 Y117.074 E1083.86449
G0 F10500 X130.862 Y117.074
G1 F1920 X55.713 Y41.925 E1087.02977
G0 F10500 X56.420 Y41.925
G1 F1920 X131.569 Y117.074 E1090.19505
G0 F10500 X132.277 Y117.074
G1 F1920 X57.127 Y41.925 E1093.36035
G0 F10500 X57.834 Y41.925
G1 F1920 X132.984 Y117.074 E1096.52565
G0 F10500 X133.691 Y117.074
G1 F1920 X58.542 Y41.925 E1099.69093
G0 F10500 X59.249 Y41.925
G1 F1920 X134.324 Y117.000 E1102.85310
G0 F10500 X134.324 Y116.292
G1 F1920 X59.956 Y41.925 E1105.98546
G0 F10500 X60.663 Y41.925
G1 F1920 X134.324 Y115.585 E1109.08804
G0 F10500 X134.324 Y114.878
G1 F1920 X61.370 Y41.925 E1112.16085
G0 F10500 X62.077 Y41.925
G1 F1920 X134.324 Y114.171 E1115.20388
G0 F10500 X134.324 Y113.464
G1 F1920 X62.784 Y41.925 E1118.21713
G0 F10500 X63.491 Y41.925
G1 F1920 X134.324 Y112.757 E1121.20059
G0 F10500 X134.324 Y112.050
G1 F1920 X64.198 Y41.925 E1124.15429
G0 F10500 X64.906 Y41.925
G1 F1920 X134.324 Y111.343 E1127.07818
G0 F10500 X134.324 Y110.636
G1 F1920 X65.613 Y41.925 E1129.97229
G0 F10500 X66.320 Y41.925
G1 F1920 X134.324 Y109.928 E1132.83660
G0 F10500 X134.324 Y109.221
G1 F1920 X67.027 Y41.925 E1135.67113
G0 F10500 X67.734 Y41.925
G1 F1920 X134.324 Y108.514 E1138.47589
G0 F10500 X134.324 Y107.807
G1 F1920 X68.441 Y41.925 E1141.25086
G0 F10500 X69.148 Y41.925
G1 F1920 X134.324 Y107.100 E1143.99606
G0 F10500 X134.324 Y106.393
G1 F1920 X69.855 Y41.925 E1146.71147
G0 F10500 X70.562 Y41.925
G1 F1920 X134.324 Y105.686 E1149.39711
G0 F10500 X134.324 Y104.979
G1 F1920 X71.269 Y41.925 E1152.05297
G0 F10500 X71.977 Y41.925
G1 F1920 X134.324 Y104.272 E1154.67903
G0 F10500 X134.324 Y103.564
G1 F1920 X72.684 Y41.925 E1157.27529
G0 F10500 X73.391 Y41.925
G1 F1920 X134.324 Y102.857 E1159.84177
G0 F10500 X134.324 Y102.150
G1 F1920 X74.098 Y41.925 E1162.37847
G0 F10500 X74.805 Y41.925
G1 F1920 X134.324 Y101.443 E1164.88540
G0 F10500 X134.324 Y100.736
G1 F1920 X75.512 Y41.925 E1167.36254
G0 F10500 X76.219 Y41.925
G1 F1920 X134.324 Y100.029 E1169.80990
G0 F10500 X134.324 Y99.322
G1 F1920 X76.926 Y41.925 E1172.22749
G0 F10500 X77.633 Y41.925
G1 F1920 X134.324 Y98.615 E1174.61530
G0 F10500 X134.324 Y97.908
G1 F1920 X78.341 Y41.925 E1176.97331
G0 F10500 X79.048 Y41.925
G1 F1920 X134.324 Y97.201 E1179.30153
G0 F10500 X134.324 Y96.493
G1 F1920 X79.755 Y41.925 E1181.59996
G0 F10500 X80.462 Y41.925
G1 F1920 X131.324 Y92.787 E1183.74227
G0 F10500 X131.324 Y92.080
G1 F1920 X81.169 Y41.925 E1185.85481
G0 F10500 X81.876 Y41.925
G1 F1920 X131.324 Y91.373 E1187.93756
G0 F10500 X131.324 Y90.665
G1 F1920 X82.583 Y41.925 E1189.99051
G0 F10500 X83.290 Y41.925
G1 F1920 X131.324 Y89.958 E1192.01368
G0 F10500 X131.324 Y89.251
G1 F1920 X83.997 Y41.925 E1194.00708
G0 F10500 X84.705 Y41.925
G1 F1920 X131.324 Y88.544 E1195.97067
G0 F10500 X131.324 Y87.837
G1 F1920 X85.412 Y41.925 E1197.90449
G0 F10500 X86.119 Y41.925
G1 F1920 X131.324 Y87.130 E1199.80853
G0 F10500 X131.324 Y86.423
G1 F1920 X86.826 Y41.925 E1201.68279
G0 F10500 X87.533 Y41.925
G1 F1920 X131.324 Y85.716 E1203.52727
G0 F10500 X131.324 Y85.009
G1 F1920 X88.240 Y41.925 E1205.34197
G0 F10500 X88.947 Y41.925
G1 F1920 X131.324 Y84.301 E1207.12687
G0 F10500 X131.324 Y83.594
G1 F1920 X89.654 Y41.925 E1208.88199
G0 F10500 X90.361 Y41.925
G1 F1920 X131.324 Y82.887 E1210.60733
G0 F10500 X131.324 Y82.180
G1 F1920 X91.068 Y41.925 E1212.30290
G0 F10500 X91.776 Y41.925
G1 F1920 X131.324 Y81.473 E1213.96866
G0 F10500 X131.324 Y80.766
G1 F1920 X92.483 Y41.925 E1215.60465
G0 F10500 X93.190 Y41.925
G1 F1920 X131.324 Y80.059 E1217.21085
G0 F10500 X131.324 Y79.352
G1 F1920 X93.897 Y41.925 E1218.78728
G0 F10500 X94.604 Y41.925
G1 F1920 X131.324 Y78.645 E1220.33393
G0 F10500 X131.324 Y77.938
G1 F1920 X95.311 Y41.925 E1221.85080
G0 F10500 X96.018 Y41.925
G1 F1920 X131.324 Y77.230 E1223.33787
G0 F10500 X131.324 Y76.523
G1 F1920 X96.725 Y41.925 E1224.79516
G0 F10500 X97.432 Y41.925
G1 F1920 X131.324 Y75.816 E1226.22267
G0 F10500 X131.324 Y75.109
G1 F1920 X98.140 Y41.925 E1227.62038
G0 F10500 X98.847 Y41.925
G1 F1920 X131.324 Y74.402 E1228.98832
G0 F10500 X131.324 Y73.695
G1 F1920 X99.554 Y41.925 E1230.32647
G0 F10500 X100.261 Y41.925
G1 F1920 X131.324 Y72.988 E1231.63485
G0 F10500 X131.324 Y72.281
G1 F1920 X100.968 Y41.925 E1232.91344
G0 F10500 X101.675 Y41.925
G1 F1920 X131.324 Y71.574 E1234.16226
G0 F10500 X131.324 Y70.866
G1 F1920 X102.382 Y41.925 E1235.38128
G0 F10500 X103.089 Y41.925
G1 F1920 X131.324 Y70.159 E1236.57052
G0 F10500 X131.324 Y69.452
G1 F1920 X103.796 Y41.925 E1237.72998
G0 F10500 X104.504 Y41.925
G1 F1920 X131.324 Y68.745 E1238.85964
G0 F10500 X131.324 Y68.038
G1 F1920 X105.211 Y41.925 E1239.95952
G0 F10500 X105.775 Y41.782
G1 F1920 X131.324 Y67.331 E1241.03564
G0 F10500 X131.324 Y66.624
G1 F1920 X106.128 Y41.428 E1242.09690
G0 F10500 X106.482 Y41.075
G1 F1920 X131.324 Y65.917 E1243.14325
G0 F10500 X131.324 Y65.210
G1 F1920 X106.836 Y40.721 E1244.17471
G0 F10500 X107.189 Y40.368
G1 F1920 X131.324 Y64.502 E1245.19125
G0 F10500 X131.324 Y63.795
G1 F1920 X107.543 Y40.014 E1246.19291
G0 F10500 X107.896 Y39.660
G1 F1920 X131.324 Y63.088 E1247.17970
G0 F10500 X131.441 Y62.498
G1 F1920 X108.250 Y39.307 E1248.15650
G0 F10500 X108.603 Y38.953
G1 F1920 X131.794 Y62.144 E1249.13331
G0 F10500 X132.148 Y61.791
G1 F1920 X109.282 Y38.925 E1250.09643
G0 F10500 X109.989 Y38.925
G1 F1920 X132.501 Y61.437 E1251.04464
G0 F10500 X132.855 Y61.084
G1 F1920 X110.696 Y38.925 E1251.97797
G0 F10500 X111.403 Y38.925
G1 F1920 X133.209 Y60.730 E1252.89642
G0 F10500 X133.562 Y60.377
G1 F1920 X112.111 Y38.925 E1253.79996
G0 F10500 X112.818 Y38.925
G1 F1920 X133.916 Y60.023 E1254.68861
G0 F10500 X134.269 Y59.669
G1 F1920 X113.525 Y38.925 E1255.56235
G0 F10500 X114.232 Y38.925
G1 F1920 X134.324 Y59.017 E1256.40862
G0 F10500 X134.324 Y58.310
G1 F1920 X114.939 Y38.925 E1257.22512
G0 F10500 X115.646 Y38.925
G1 F1920 X134.324 Y57.603 E1258.01184
G0 F10500 X134.324 Y56.895
G1 F1920 X116.353 Y38.925 E1258.76876
G0 F10500 X117.060 Y38.925
G1 F1920 X134.324 Y56.188 E1259.49590
G0 F10500 X134.324 Y55.481
G1 F1920 X117.767 Y38.925 E1260.19326
G0 F10500 X118.475 Y38.925
G1 F1920 X134.324 Y54.774 E1260.86082
G0 F10500 X134.324 Y54.067
G1 F1920 X119.182 Y38.925 E1261.49860
G0 F10500 X119.889 Y38.925
G1 F1920 X134.324 Y53.360 E1262.10661
G0 F10500 X134.324 Y52.653
G1 F1920 X120.596 Y38.925 E1262.68483
G0 F10500 X121.303 Y38.925
G1 F1920 X134.324 Y51.946 E1263.23328
G0 F10500 X134.324 Y51.239
G1 F1920 X122.010 Y38.925 E1263.75194
G0 F10500 X122.717 Y38.925
G1 F1920 X134.324 Y50.531 E1264.24081
G0 F10500 X134.324 Y49.824
G1 F1920 X123.424 Y38.925 E1264.69990
G0 F10500 X124.131 Y38.925
G1 F1920 X134.324 Y49.117 E1265.12920
G0 F10500 X134.324 Y48.410
G1 F1920 X124.838 Y38.925 E1265.52873
G0 F10500 X125.546 Y38.925
G1 F1920 X134.324 Y47.703 E1265.89846
G0 F10500 X134.324 Y46.996
G1 F1920 X126.253 Y38.925 E1266.23842
G0 F10500 X126.960 Y38.925
G1 F1920 X134.324 Y46.289 E1266.54859
G0 F10500 X134.324 Y45.582
G1 F1920 X127.667 Y38.925 E1266.82898
G0 F10500 X128.374 Y38.925
G1 F1920 X134.324 Y44.875 E1267.07960
G0 F10500 X134.324 Y44.168
G1 F1920 X129.081 Y38.925 E1267.30043
G0 F10500 X129.788 Y38.925
G1 F1920 X134.324 Y43.460 E1267.49147
G0 F10500 X134.324 Y42.753
G1 F1920 X130.495 Y38.925 E1267.65272
G0 F10500 X131.202 Y38.925
G1 F1920 X134.324 Y42.046 E1267.78420
G0 F10500 X134.324 Y41.339
G1 F1920 X131.910 Y38.925 E1267.88588
G0 F10500 X132.617 Y38.925
G1 F1920 X134.324 Y40.632 E1267.95778
G0 F10500 X134.324 Y39.925
G1 F1920 X133.324 Y38.925 E1267.99990
G0 F10500 X134.031 Y38.925
G1 F1920 X134.324 Y39.218 E1268.01224
G0 F10500 X105.235 Y114.074
G1 F1920 X35.478 Y44.317 E1270.95041
G0 F10500 X35.478 Y45.024
G1 F1920 X104.528 Y114.074 E1273.85880
G0 F10500 X103.820 Y114.074
G1 F1920 X35.478 Y45.731 E1276.73739
G0 F10500 X35.478 Y46.438
G1 F1920 X103.113 Y114.074 E1279.58620
G0 F10500 X102.406 Y114.074
G1 F1920 X35.478 Y47.145 E1282.40523
G0 F10500 X35.478 Y47.852
G1 F1920 X101.699 Y114.074 E1285.19449
G0 F10500 X100.992 Y114.074
G1 F1920 X35.478 Y48.559 E1287.95396
G0 F10500 X35.478 Y49.266
G1 F1920 X100.285 Y114.074 E1290.68366
G0 F10500 X105.533 Y114.316
G0 X108.942 Y117.074
G1 F1920 X35.478 Y43.610 E1293.77796
G0 F10500 X35.478 Y42.902
G1 F1920 X109.649 Y117.074 E1296.90207
G0 F10500 X110.356 Y117.074
G1 F1920 X35.478 Y42.195 E1300.05596
G0 F10500 X35.478 Y41.488
G1 F1920 X111.063 Y117.074 E1303.23963
G0 F10500 X111.770 Y117.074
G1 F1920 X35.478 Y40.781 E1306.45307
G0 F10500 X35.478 Y40.074
G1 F1920 X112.478 Y117.074 E1309.69632
G0 F10500 X105.533 Y114.316
G0 X99.578 Y114.074
G1 F1920 X35.478 Y49.974 E1312.39621
G0 F10500 X35.478 Y50.681
G1 F1920 X98.871 Y114.074 E1315.06633
G0 F10500 X98.164 Y114.074
G1 F1920 X35.478 Y51.388 E1317.70667
G0 F10500 X35.478 Y52.095
G1 F1920 X97.456 Y114.074 E1320.31720
G0 F10500 X96.749 Y114.074
G1 F1920 X35.478 Y52.802 E1322.89796
G0 F10500 X35.478 Y53.509
G1 F1920 X96.042 Y114.074 E1325.44894
G0 F10500 X95.335 Y114.074
G1 F1920 X35.478 Y54.216 E1327.97015
G0 F10500 X35.478 Y54.923
G1 F1920 X94.628 Y114.074 E1330.46157
G0 F10500 X93.921 Y114.074
G1 F1920 X35.478 Y55.630 E1332.92321
G0 F10500 X35.478 Y56.338
G1 F1920 X93.214 Y114.074 E1335.35506
G0 F10500 X92.507 Y114.074
G1 F1920 X35.478 Y57.045 E1337.75712
G0 F10500 X35.478 Y57.752
G1 F1920 X91.800 Y114.074 E1340.12941
G0 F10500 X91.093 Y114.074
G1 F1920 X35.478 Y58.459 E1342.47191
G0 F10500 X35.478 Y59.166
G1 F1920 X90.385 Y114.074 E1344.78462
G0 F10500 X89.678 Y114.074
G1 F1920 X35.478 Y59.873 E1347.06755
G0 F10500 X35.478 Y60.580
G1 F1920 X88.971 Y114.074 E1349.32070
G0 F10500 X88.264 Y114.074
G1 F1920 X35.478 Y61.287 E1351.54407
G0 F10500 X35.478 Y61.994
G1 F1920 X87.557 Y114.074 E1353.73766
G0 F10500 X86.850 Y114.074
G1 F1920 X35.478 Y62.701 E1355.90148
G0 F10500 X35.478 Y63.409
G1 F1920 X86.143 Y114.074 E1358.03549
G0 F10500 X85.436 Y114.074
G1 F1920 X35.478 Y64.116 E1360.13972
G0 F10500 X35.478 Y64.823
G1 F1920 X84.729 Y114.074 E1362.21418
G0 F10500 X84.021 Y114.074
G1 F1920 X35.478 Y65.530 E1364.25883
G0 F10500 X35.478 Y66.237
G1 F1920 X83.314 Y114.074 E1366.27371
G0 F10500 X82.607 Y114.074
G1 F1920 X35.478 Y66.944 E1368.25881
G0 F10500 X35.478 Y67.651
G1 F1920 X81.900 Y114.074 E1370.21413
G0 F10500 X81.193 Y114.074
G1 F1920 X35.478 Y68.358 E1372.13966
G0 F10500 X35.478 Y69.065
G1 F1920 X80.486 Y114.074 E1374.03543
G0 F10500 X79.779 Y114.074
G1 F1920 X35.478 Y69.773 E1375.90139
G0 F10500 X35.478 Y70.480
G1 F1920 X79.072 Y114.074 E1377.73757
G0 F10500 X78.365 Y114.074
G1 F1920 X35.478 Y71.187 E1379.54397
G0 F10500 X35.478 Y71.894
G1 F1920 X77.658 Y114.074 E1381.32060
G0 F10500 X76.950 Y114.074
G1 F1920 X35.478 Y72.601 E1383.06742
G0 F10500 X35.478 Y73.308
G1 F1920 X76.243 Y114.074 E1384.78447
G0 F10500 X75.536 Y114.074
G1 F1920 X35.478 Y74.015 E1386.47173
G0 F10500 X35.478 Y74.722
G1 F1920 X74.829 Y114.074 E1388.12922
G0 F10500 X74.122 Y114.074
G1 F1920 X35.478 Y75.429 E1389.75693
G0 F10500 X35.478 Y76.137
G1 F1920 X73.415 Y114.074 E1391.35484
G0 F10500 X72.708 Y114.074
G1 F1920 X35.478 Y76.844 E1392.92297
G0 F10500 X35.478 Y77.551
G1 F1920 X72.001 Y114.074 E1394.46132
G0 F10500 X71.294 Y114.074
G1 F1920 X35.478 Y78.258 E1395.96989
G0 F10500 X35.478 Y78.965
G1 F1920 X70.586 Y114.074 E1397.44866
G0 F10500 X69.879 Y114.074
G1 F1920 X35.478 Y79.672 E1398.89766
G0 F10500 X35.478 Y80.379
G1 F1920 X69.172 Y114.074 E1400.31687
G0 F10500 X68.465 Y114.074
G1 F1920 X35.478 Y81.086 E1401.70631
G0 F10500 X35.478 Y81.793
G1 F1920 X67.758 Y114.074 E1403.06596
G0 F10500 X67.051 Y114.074
G1 F1920 X35.478 Y82.500 E1404.39584
G0 F10500 X35.478 Y83.208
G1 F1920 X66.344 Y114.074 E1405.69592
G0 F10500 X65.637 Y114.074
G1 F1920 X35.478 Y83.915 E1406.96622
G0 F10500 X35.478 Y84.622
G1 F1920 X64.930 Y114.074 E1408.20674
G0 F10500 X64.222 Y114.074
G1 F1920 X35.478 Y85.329 E1409.41746
G0 F10500 X35.478 Y86.036
G1 F1920 X63.515 Y114.074 E1410.59840
G0 F10500 X62.808 Y114.074
G1 F1920 X35.478 Y86.743 E1411.74956
G0 F10500 X35.478 Y87.450
G1 F1920 X62.101 Y114.074 E1412.87094
G0 F10500 X61.394 Y114.074
G1 F1920 X35.478 Y88.157 E1413.96255
G0 F10500 X35.478 Y88.864
G1 F1920 X60.687 Y114.074 E1415.02437
G0 F10500 X59.980 Y114.074
G1 F1920 X35.478 Y89.572 E1416.05640
G0 F10500 X35.478 Y90.279
G1 F1920 X59.273 Y114.074 E1417.05865
G0 F10500 X58.566 Y114.074
G1 F1920 X35.478 Y90.986 E1418.03111
G0 F10500 X35.478 Y91.693
G1 F1920 X57.859 Y114.074 E1418.97380
G0 F10500 X57.151 Y114.074
G1 F1920 X35.478 Y92.400 E1419.88669
G0 F10500 X35.478 Y93.107
G1 F1920 X56.444 Y114.074 E1420.76980
G0 F10500 X55.737 Y114.074
G1 F1920 X35.478 Y93.814 E1421.62313
G0 F10500 X35.478 Y94.521
G1 F1920 X55.030 Y114.074 E1422.44669
G0 F10500 X54.595 Y114.346
G1 F1920 X35.478 Y95.228 E1423.25192
G0 F10500 X35.478 Y95.936
G1 F1920 X54.242 Y114.699 E1424.04224
G0 F10500 X53.888 Y115.053
G1 F1920 X35.478 Y96.643 E1424.81767
G0 F10500 X35.478 Y97.350
G1 F1920 X53.535 Y115.406 E1425.57821
G0 F10500 X53.181 Y115.760
G1 F1920 X35.478 Y98.057 E1426.32386
G0 F10500 X35.478 Y98.764
G1 F1920 X52.827 Y116.114 E1427.05462
G0 F10500 X52.474 Y116.467
G1 F1920 X35.478 Y99.471 E1427.77049
G0 F10500 X35.478 Y100.178
G1 F1920 X52.120 Y116.821 E1428.47148
G0 F10500 X51.666 Y117.074
G1 F1920 X35.478 Y100.885 E1429.15334
G0 F10500 X35.478 Y101.592
G1 F1920 X50.959 Y117.074 E1429.80542
G0 F10500 X50.252 Y117.074
G1 F1920 X35.478 Y102.299 E1430.42772
G0 F10500 X35.478 Y103.007
G1 F1920 X49.545 Y117.074 E1431.02023
G0 F10500 X48.838 Y117.074
G1 F1920 X35.478 Y103.714 E1431.58295
G0 F10500 X35.478 Y104.421
G1 F1920 X48.131 Y117.074 E1432.11589
G0 F10500 X47.424 Y117.074
G1 F1920 X35.478 Y105.128 E1432.61906
G0 F10500 X35.478 Y105.835
G1 F1920 X46.717 Y117.074 E1433.09245
G0 F10500 X46.010 Y117.074
G1 F1920 X35.478 Y106.542 E1433.53606
G0 F10500 X35.478 Y107.249
G1 F1920 X45.302 Y117.074 E1433.94987
G0 F10500 X44.595 Y117.074
G1 F1920 X35.478 Y107.956 E1434.33389
G0 F10500 X35.478 Y108.663
G1 F1920 X43.888 Y117.074 E1434.68815
G0 F10500 X43.181 Y117.074
G1 F1920 X35.478 Y109.371 E1435.01260
G0 F10500 X35.478 Y110.078
G1 F1920 X42.474 Y117.074 E1435.30727
G0 F10500 X41.767 Y117.074
G1 F1920 X35.478 Y110.785 E1435.57216
G0 F10500 X35.478 Y111.492
G1 F1920 X41.060 Y117.074 E1435.80728
G0 F10500 X40.353 Y117.074
G1 F1920 X35.478 Y112.199 E1436.01261
G0 F10500 X35.478 Y112.906
G1 F1920 X39.646 Y117.074 E1436.18817
G0 F10500 X38.938 Y117.074
G1 F1920 X35.478 Y113.613 E1436.33392
G0 F10500 X35.478 Y114.320
G1 F1920 X38.231 Y117.074 E1436.44990
G0 F10500 X37.524 Y117.074
G1 F1920 X35.478 Y115.027 E1436.53610
G0 F10500 X35.478 Y115.734
G1 F1920 X36.817 Y117.074 E1436.59252
G0 F10500 X36.110 Y117.074
G1 F1920 X35.478 Y116.442 E1436.61914
;LAYER:3
G0 F10500 X35.258 Y117.250 Z1.565
;TYPE:WALL-OUTER
G1 F1500 X51.941 Y117.250 E1437.11602
G1 X54.941 Y114.250 E1437.24238
G1 X105.560 Y114.250 E1438.74998
G1 X108.560 Y117.250 E1438.87634
G1 X134.500 Y117.250 E1439.64892
G1 X134.500 Y96.310 E1440.27259
G1 X131.500 Y93.310 E1440.39895
G1 X131.500 Y62.690 E1441.31091
G1 X134.500 Y59.690 E1441.43727
G1 X134.500 Y38.750 E1442.06094
G1 X108.560 Y38.750 E1442.83352
G1 X105.560 Y41.750 E1442.95988
G1 X54.941 Y41.750 E1444.46748
G1 X51.941 Y38.750 E1444.59384
G1 X35.258 Y38.750 E1445.09072
G1 X35.258 Y117.250 E1447.42872
G0 F10500 X34.538 Y117.750
G1 F1500 X34.538 Y38.250 E1449.79649
G1 X52.147 Y38.250 E1450.32095
G1 X55.147 Y41.250 E1450.44731
G1 X105.354 Y41.250 E1451.94264
G1 X108.354 Y38.250 E1452.06900
G1 X135.000 Y38.250 E1452.86261
G1 X135.000 Y59.896 E1453.50730
G1 X132.000 Y62.896 E1453.63366
G1 X132.000 Y93.103 E1454.53333
G1 X135.000 Y96.103 E1454.65969
G1 X135.000 Y117.750 E1455.30441
G1 X108.354 Y117.750 E1456.09802
G1 X105.354 Y114.750 E1456.22438
G1 X55.147 Y114.750 E1457.71971
G1 X52.147 Y117.750 E1457.84607
G1 X34.538 Y117.750 E1458.37053
G0 F10500 X34.807 Y117.574
;TYPE:SKIN
G1 F2400 X34.898 Y117.129 E1458.38214
G1 X34.898 Y116.422 E1458.39768
G1 X34.898 Y115.715 E1458.41322
G1 X34.898 Y115.008 E1458.42876
G1 X34.898 Y114.300 E1458.44432
G1 X34.898 Y113.593 E1458.45986
G1 X34.898 Y112.886 E1458.47540
G1 X34.898 Y112.179 E1458.49094
G1 X34.898 Y111.472 E1458.50648
G1 X34.898 Y110.765 E1458.52202
G1 X34.898 Y110.058 E1458.53756
G1 X34.898 Y109.351 E1458.55310
G1 X34.898 Y108.644 E1458.56864
G1 X34.898 Y107.937 E1458.58418
G1 X34.898 Y107.229 E1458.59974
G1 X34.898 Y106.522 E1458.61528
G1 X34.898 Y105.815 E1458.63082
G1 X34.898 Y105.108 E1458.64636
G1 X34.898 Y104.401 E1458.66190
G1 X34.898 Y103.694 E1458.67744
G1 X34.898 Y102.987 E1458.69298
G1 X34.898 Y102.280 E1458.70852
G1 X34.898 Y101.573 E1458.72406
G1 X34.898 Y100.865 E1458.73962
G1 X34.898 Y100.158 E1458.75516
G1 X34.898 Y99.451 E1458.77070
G1 X34.898 Y98.744 E1458.78624
G1 X34.898 Y98.037 E1458.80178
G1 X34.898 Y97.330 E1458.81732
G1 X34.898 Y96.623 E1458.83286
G1 X34.898 Y95.916 E1458.84840
G1 X34.898 Y95.209 E1458.86394
G1 X34.898 Y94.501 E1458.87950
G1 X34.898 Y93.794 E1458.89504
G1 X34.898 Y93.087 E1458.91058
G1 X34.898 Y92.380 E1458.92612
G1 X34.898 Y91.673 E1458.94166
G1 X34.898 Y90.966 E1458.95720
G1 X34.898 Y90.259 E1458.97274
G1 X34.898 Y89.552 E1458.98828
G1 X34.898 Y88.845 E1459.00382
G1 X34.898 Y88.138 E1459.01936
G1 X34.898 Y87.430 E1459.03492
G1 X34.898 Y86.723 E1459.05046
G1 X34.898 Y86.016 E1459.06600
G1 X34.898 Y85.309 E1459.08154
G1 X34.898 Y84.602 E1459.09708
G1 X34.898 Y83.895 E1459.11262
G1 X34.898 Y83.188 E1459.12816
G1 X34.898 Y82.481 E1459.14370
G1 X34.898 Y81.774 E1459.15924
G1 X34.898 Y81.066 E1459.17481
G1 X34.898 Y80.359 E1459.19035
G1 X34.898 Y79.652 E1459.20589
G1 X34.898 Y78.945 E1459.22143
G1 X34.898 Y78.238 E1459.23697
G1 X34.898 Y77.531 E1459.25251
G1 X34.898 Y76.824 E1459.26805
G1 X34.898 Y76.117 E1459.28359
G1 X34.898 Y75.410 E1459.29913
G1 X34.898 Y74.703 E1459.31467
G1 X34.898 Y73.995 E1459.33023
G1 X34.898 Y73.288 E1459.34577
G1 X34.898 Y72.581 E1459.36131
G1 X34.898 Y71.874 E1459.37685
G1 X34.898 Y71.167 E1459.39239
G1 X34.898 Y70.460 E1459.40793
G1 X34.898 Y69.753 E1459.42347
G1 X34.898 Y69.046 E1459.43901
G1 X34.898 Y68.339 E1459.45455
G1 X34.898 Y67.631 E1459.47011
G1 X34.898 Y66.924 E1459.48565
G1 X34.898 Y66.217 E1459.50119
G1 X34.898 Y65.510 E1459.51673
G1 X34.898 Y64.803 E1459.53227
G1 X34.898 Y64.096 E1459.54781
G1 X34.898 Y63.389 E1459.56335
G1 X34.898 Y62.682 E1459.57889
G1 X34.898 Y61.975 E1459.59443
G1 X34.898 Y61.267 E1459.60999
G1 X34.898 Y60.560 E1459.62553
G1 X34.898 Y59.853 E1459.64107
G1 X34.898 Y59.146 E1459.65661
G1 X34.898 Y58.439 E1459.67215
G1 X34.898 Y57.732 E1459.68769
G1 X34.898 Y57.025 E1459.70323
G1 X34.898 Y56.318 E1459.71877
G1 X34.898 Y55.611 E1459.73431
G1 X34.898 Y54.904 E1459.74985
G1 X34.898 Y54.196 E1459.76541
G1 X34.898 Y53.489 E1459.78095
G1 X34.898 Y52.782 E1459.79649
G1 X34.898 Y52.075 E1459.81203
G1 X34.898 Y51.368 E1459.82757
G1 X34.898 Y50.661 E1459.84311
G1 X34.898 Y49.954 E1459.85865
G1 X34.898 Y49.247 E1459.87419
G1 X34.898 Y48.540 E1459.88973
G1 X34.898 Y47.832 E1459.90529
G1 X34.898 Y47.125 E1459.92083
G1 X34.898 Y46.418 E1459.93637
G1 X34.898 Y45.711 E1459.95191
G1 X34.898 Y45.004 E1459.96745
G1 X34.898 Y44.297 E1459.98299
G1 X34.898 Y43.590 E1459.99853
G1 X34.898 Y42.883 E1460.01407
G1 X34.898 Y42.176 E1460.02961
G1 X34.898 Y41.468 E1460.04518
G1 X34.898 Y40.761 E1460.06072
G1 X34.898 Y40.054 E1460.07626
G1 X34.898 Y39.347 E1460.09180
G1 X35.083 Y38.809 E1460.10874
;LAYER:4
G0 F10500 X34.992 Y38.750 Z1.945
;TYPE:WALL-OUTER
G1 F1800 X34.992 Y117.250 E1462.44674
G1 X51.941 Y117.250 E1462.95153
G1 X54.941 Y114.250 E1463.07789
G1 X105.560 Y114.250 E1464.58550
G1 X108.560 Y117.250 E1464.71186
G1 X134.500 Y117.250 E1465.48444
G1 X134.500 Y96.310 E1466.10810
G1 X131.500 Y93.310 E1466.23446
G1 X131.500 Y62.690 E1467.14643
G1 X134.500 Y59.690 E1467.27279
G1 X134.500 Y38.750 E1467.89646
G1 X108.560 Y38.750 E1468.66904
G1 X105.560 Y41.750 E1468.79540
G1 X54.941 Y41.750 E1470.30300
G1 X51.941 Y38.750 E1470.42936
G1 X34.992 Y38.750 E1470.93416
G0 F10500 X34.272 Y38.250
G1 F1800 X52.147 Y38.250 E1471.46654
G1 X55.147 Y41.250 E1471.59290
G1 X105.354 Y41.250 E1473.08823
G1 X108.354 Y38.250 E1473.21459
G1 X135.000 Y38.250 E1474.00820
G1 X135.000 Y59.896 E1474.65289
G1 X132.000 Y62.896 E1474.77925
G1 X132.000 Y93.103 E1475.67892
G1 X135.000 Y96.103 E1475.80528
G1 X135.000 Y117.750 E1476.45000
G1 X108.354 Y117.750 E1477.24361
G1 X105.354 Y114.750 E1477.36997
G1 X55.147 Y114.750 E1478.86530
G1 X52.147 Y117.750 E1478.99166
G1 X34.272 Y117.750 E1479.52404
G1 X34.272 Y38.250 E1481.89182
G0 F10500 X34.535 Y38.424
;TYPE:SKIN
G1 F3000 X34.631 Y38.874 E1481.90366
G1 X34.631 Y39.581 E1481.91924
G1 X34.631 Y40.288 E1481.93478
G1 X34.631 Y40.995 E1481.95032
G1 X34.631 Y41.702 E1481.96586
G1 X34.631 Y42.409 E1481.98140
G1 X34.631 Y43.116 E1481.99694
G1 X34.631 Y43.824 E1482.01255
G1 X34.631 Y44.531 E1482.02813
G1 X34.631 Y45.238 E1482.04371
G1 X34.631 Y45.945 E1482.05929
G1 X34.631 Y46.652 E1482.07487
G1 X34.631 Y47.359 E1482.09041
G1 X34.631 Y48.066 E1482.10595
G1 X34.631 Y48.773 E1482.12149
G1 X34.631 Y49.480 E1482.13703
G1 X34.631 Y50.188 E1482.15264
G1 X34.631 Y50.895 E1482.16822
G1 X34.631 Y51.602 E1482.18380
G1 X34.631 Y52.309 E1482.19938
G1 X34.631 Y53.016 E1482.21497
G1 X34.631 Y53.723 E1482.23051
G1 X34.631 Y54.430 E1482.24605
G1 X34.631 Y55.137 E1482.26159
G1 X34.631 Y55.844 E1482.27713
G1 X34.631 Y56.551 E1482.29267
G1 X34.631 Y57.259 E1482.30827
G1 X34.631 Y57.966 E1482.32385
G1 X34.631 Y58.673 E1482.33943
G1 X34.631 Y59.380 E1482.35502
G1 X34.631 Y60.087 E1482.37060
G1 X34.631 Y60.794 E1482.38614
G1 X34.631 Y61.501 E1482.40168
G1 X34.631 Y62.208 E1482.41722
G1 X34.631 Y62.915 E1482.43276
G1 X34.631 Y63.623 E1482.44836
G1 X34.631 Y64.330 E1482.46394
G1 X34.631 Y65.037 E1482.47953
G1 X34.631 Y65.744 E1482.49511
G1 X34.631 Y66.451 E1482.51069
G1 X34.631 Y67.158 E1482.52623
G1 X34.631 Y67.865 E1482.54177
G1 X34.631 Y68.572 E1482.55731
G1 X34.631 Y69.279 E1482.57285
G1 X34.631 Y69.987 E1482.58845
G1 X34.631 Y70.694 E1482.60404
G1 X34.631 Y71.401 E1482.61962
G1 X34.631 Y72.108 E1482.63520
G1 X34.631 Y72.815 E1482.65078
G1 X34.631 Y73.522 E1482.66632
G1 X34.631 Y74.229 E1482.68186
G1 X34.631 Y74.936 E1482.69740
G1 X34.631 Y75.643 E1482.71294
G1 X34.631 Y76.350 E1482.72848
G1 X34.631 Y77.058 E1482.74409
G1 X34.631 Y77.765 E1482.75967
G1 X34.631 Y78.472 E1482.77525
G1 X34.631 Y79.179 E1482.79083
G1 X34.631 Y79.886 E1482.80641
G1 X34.631 Y80.593 E1482.82195
G1 X34.631 Y81.300 E1482.83749
G1 X34.631 Y82.007 E1482.85303
G1 X34.631 Y82.714 E1482.86857
G1 X34.631 Y83.422 E1482.88418
G1 X34.631 Y84.129 E1482.89976
G1 X34.631 Y84.836 E1482.91534
G1 X34.631 Y85.543 E1482.93092
G1 X34.631 Y86.250 E1482.94651
G1 X34.631 Y86.957 E1482.96205
G1 X34.631 Y87.664 E1482.97759
G1 X34.631 Y88.371 E1482.99313
G1 X34.631 Y89.078 E1483.00867
G1 X34.631 Y89.786 E1483.02427
G1 X34.631 Y90.493 E1483.03985
G1 X34.631 Y91.200 E1483.05543
G1 X34.631 Y91.907 E1483.07102
G1 X34.631 Y92.614 E1483.08660
G1 X34.631 Y93.321 E1483.10214
G1 X34.631 Y94.028 E1483.11768
G1 X34.631 Y94.735 E1483.13322
G1 X34.631 Y95.442 E1483.14876
G1 X34.631 Y96.149 E1483.16430
G1 X34.631 Y96.857 E1483.17990
G1 X34.631 Y97.564 E1483.19548
G1 X34.631 Y98.271 E1483.21107
G1 X34.631 Y98.978 E1483.22665
G1 X34.631 Y99.685 E1483.24223
G1 X34.631 Y100.392 E1483.25777
G1 X34.631 Y101.099 E1483.27331
G1 X34.631 Y101.806 E1483.28885
G1 X34.631 Y102.513 E1483.30439
G1 X34.631 Y103.221 E1483.31999
G1 X34.631 Y103.928 E1483.33558
G1 X34.631 Y104.635 E1483.35116
G1 X34.631 Y105.342 E1483.36674
G1 X34.631 Y106.049 E1483.38232
G1 X34.631 Y106.756 E1483.39786
G1 X34.631 Y107.463 E1483.41340
G1 X34.631 Y108.170 E1483.42894
G1 X34.631 Y108.877 E1483.44448
G1 X34.631 Y109.584 E1483.46002
G1 X34.631 Y110.292 E1483.47563
G1 X34.631 Y110.999 E1483.49121
G1 X34.631 Y111.706 E1483.50679
G1 X34.631 Y112.413 E1483.52237
G1 X34.631 Y113.120 E1483.53791
G1 X34.631 Y113.827 E1483.55345
G1 X34.631 Y114.534 E1483.56899
G1 X34.631 Y115.241 E1483.58453
G1 X34.631 Y115.948 E1483.60007
G1 X34.631 Y116.656 E1483.61568
G1 X34.817 Y117.195 E1483.63266
;LAYER:5
G0 F10500 X34.726 Y117.250 Z2.325
;TYPE:WALL-OUTER
G1 F1800 X51.941 Y117.250 E1484.14538
G1 X54.941 Y114.250 E1484.27174
G1 X105.560 Y114.250 E1485.77935
G1 X108.560 Y117.250 E1485.90571
G1 X134.500 Y117.250 E1486.67829
G1 X134.500 Y96.310 E1487.30195
G1 X131.500 Y93.310 E1487.42831
G1 X131.500 Y62.690 E1488.34028
G1 X134.500 Y59.690 E1488.46664
G1 X134.500 Y38.750 E1489.09030
G1 X108.560 Y38.750 E1489.86288
G1 X105.560 Y41.750 E1489.98924
G1 X54.941 Y41.750 E1491.49685
G1 X51.941 Y38.750 E1491.62321
G1 X34.726 Y38.750 E1492.13593
G1 X34.726 Y117.250 E1494.47392
G0 F10500 X34.005 Y117.750
G1 F1800 X34.005 Y38.250 E1496.84170
G1 X52.147 Y38.250 E1497.38203
G1 X55.147 Y41.250 E1497.50839
G1 X105.354 Y41.250 E1499.00373
G1 X108.354 Y38.250 E1499.13009
G1 X135.000 Y38.250 E1499.92370
G1 X135.000 Y59.896 E1500.56839
G1 X132.000 Y62.896 E1500.69475
G1 X132.000 Y93.103 E1501.59441
G1 X135.000 Y96.103 E1501.72077
G1 X135.000 Y117.750 E1502.36549
G1 X108.354 Y117.750 E1503.15910
G1 X105.354 Y114.750 E1503.28546
G1 X55.147 Y114.750 E1504.78080
G1 X52.147 Y117.750 E1504.90716
G1 X34.005 Y117.750 E1505.44749
G0 F10500 X34.180 Y117.494
;TYPE:SKIN
G1 F3000 X34.365 Y116.955 E1505.46307
G1 X34.365 Y116.248 E1505.47861
G1 X34.365 Y115.540 E1505.49417
G1 X34.365 Y114.833 E1505.50971
G1 X34.365 Y114.126 E1505.52525
G1 X34.365 Y113.419 E1505.54079
G1 X34.365 Y112.712 E1505.55633
G1 X34.365 Y112.005 E1505.57187
G1 X34.365 Y111.298 E1505.58741
G1 X34.365 Y110.591 E1505.60295
G1 X34.365 Y109.884 E1505.61849
G1 X34.365 Y109.176 E1505.63405
G1 X34.365 Y108.469 E1505.64959
G1 X34.365 Y107.762 E1505.66513
G1 X34.365 Y107.055 E1505.68067
G1 X34.365 Y106.348 E1505.69621
G1 X34.365 Y105.641 E1505.71175
G1 X34.365 Y104.934 E1505.72729
G1 X34.365 Y104.227 E1505.74283
G1 X34.365 Y103.520 E1505.75837
G1 X34.365 Y102.813 E1505.77391
G1 X34.365 Y102.105 E1505.78947
G1 X34.365 Y101.398 E1505.80501
G1 X34.365 Y100.691 E1505.82055
G1 X34.365 Y99.984 E1505.83609
G1 X34.365 Y99.277 E1505.85163
G1 X34.365 Y98.570 E1505.86717
G1 X34.365 Y97.863 E1505.88271
G1 X34.365 Y97.156 E1505.89825
G1 X34.365 Y96.449 E1505.91379
G1 X34.365 Y95.741 E1505.92935
G1 X34.365 Y95.034 E1505.94489
G1 X34.365 Y94.327 E1505.96043
G1 X34.365 Y93.620 E1505.97597
G1 X34.365 Y92.913 E1505.99151
G1 X34.365 Y92.206 E1506.00705
G1 X34.365 Y91.499 E1506.02259
G1 X34.365 Y90.792 E1506.03813
G1 X34.365 Y90.085 E1506.05367
G1 X34.365 Y89.378 E1506.06921
G1 X34.365 Y88.670 E1506.08478
G1 X34.365 Y87.963 E1506.10032
G1 X34.365 Y87.256 E1506.11586
G1 X34.365 Y86.549 E1506.13140
G1 X34.365 Y85.842 E1506.14694
G1 X34.365 Y85.135 E1506.16248
G1 X34.365 Y84.428 E1506.17802
G1 X34.365 Y83.721 E1506.19356
G1 X34.365 Y83.014 E1506.20910
G1 X34.365 Y82.306 E1506.22466
G1 X34.365 Y81.599 E1506.24020
G1 X34.365 Y80.892 E1506.25574
G1 X34.365 Y80.185 E1506.27128
G1 X34.365 Y79.478 E1506.28682
G1 X34.365 Y78.771 E1506.30236
G1 X34.365 Y78.064 E1506.31790
G1 X34.365 Y77.357 E1506.33344
G1 X34.365 Y76.650 E1506.34898
G1 X34.365 Y75.942 E1506.36454
G1 X34.365 Y75.235 E1506.38008
G1 X34.365 Y74.528 E1506.39562
G1 X34.365 Y73.821 E1506.41116
G1 X34.365 Y73.114 E1506.42670
G1 X34.365 Y72.407 E1506.44224
G1 X34.365 Y71.700 E1506.45778
G1 X34.365 Y70.993 E1506.47332
G1 X34.365 Y70.286 E1506.48886
G1 X34.365 Y69.579 E1506.50440
G1 X34.365 Y68.871 E1506.51996
G1 X34.365 Y68.164 E1506.53550
G1 X34.365 Y67.457 E1506.55104
G1 X34.365 Y66.750 E1506.56658
G1 X34.365 Y66.043 E1506.58212
G1 X34.365 Y65.336 E1506.59766
G1 X34.365 Y64.629 E1506.61320
G1 X34.365 Y63.922 E1506.62874
G1 X34.365 Y63.215 E1506.64428
G1 X34.365 Y62.507 E1506.65984
G1 X34.365 Y61.800 E1506.67538
G1 X34.365 Y61.093 E1506.69092
G1 X34.365 Y60.386 E1506.70646
G1 X34.365 Y59.679 E1506.72200
G1 X34.365 Y58.972 E1506.73754
G1 X34.365 Y58.265 E1506.75308
G1 X34.365 Y57.558 E1506.76862
G1 X34.365 Y56.851 E1506.78416
G1 X34.365 Y56.143 E1506.79972
G1 X34.365 Y55.436 E1506.81526
G1 X34.365 Y54.729 E1506.83080
G1 X34.365 Y54.022 E1506.84634
G1 X34.365 Y53.315 E1506.86188
G1 X34.365 Y52.608 E1506.87742
G1 X34.365 Y51.901 E1506.89296
G1 X34.365 Y51.194 E1506.90850
G1 X34.365 Y50.487 E1506.92404
G1 X34.365 Y49.780 E1506.93958
G1 X34.365 Y49.072 E1506.95515
G1 X34.365 Y48.365 E1506.97069
G1 X34.365 Y47.658 E1506.98623
G1 X34.365 Y46.951 E1507.00177
G1 X34.365 Y46.244 E1507.01731
G1 X34.365 Y45.537 E1507.03285
G1 X34.365 Y44.830 E1507.04839
G1 X34.365 Y44.123 E1507.06393
G1 X34.365 Y43.416 E1507.07947
G1 X34.365 Y42.708 E1507.09503
G1 X34.365 Y42.001 E1507.11057
G1 X34.365 Y41.294 E1507.12611
G1 X34.365 Y40.587 E1507.14165
G1 X34.365 Y39.880 E1507.15719
G1 X34.365 Y39.173 E1507.17273
G1 X34.550 Y38.634 E1507.18970
;LAYER:6
G0 F10500 X34.460 Y38.750 Z2.705
;TYPE:WALL-OUTER
G1 F1800 X34.460 Y117.250 E1509.52770
G1 X51.941 Y117.250 E1510.04834
G1 X54.941 Y114.250 E1510.17470
G1 X105.560 Y114.250 E1511.68230
G1 X108.560 Y117.250 E1511.80866
G1 X134.500 Y117.250 E1512.58124
G1 X134.500 Y96.310 E1513.20491
G1 X131.500 Y93.310 E1513.33127
G1 X131.500 Y62.690 E1514.24324
G1 X134.500 Y59.690 E1514.36960
G1 X134.500 Y38.750 E1514.99326
G1 X108.560 Y38.750 E1515.76584
G1 X105.560 Y41.750 E1515.89220
G1 X54.941 Y41.750 E1517.39981
G1 X51.941 Y38.750 E1517.52617
G1 X34.460 Y38.750 E1518.04681
G0 F10500 X33.739 Y38.250
G1 F1800 X52.147 Y38.250 E1518.59506
G1 X55.147 Y41.250 E1518.72142
G1 X105.354 Y41.250 E1520.21676
G1 X108.354 Y38.250 E1520.34312
G1 X135.000 Y38.250 E1521.13672
G1 X135.000 Y59.896 E1521.78142
G1 X132.000 Y62.896 E1521.90778
G1 X132.000 Y93.103 E1522.80744
G1 X135.000 Y96.103 E1522.93380
G1 X135.000 Y117.750 E1523.57852
G1 X108.354 Y117.750 E1524.37213
G1 X105.354 Y114.750 E1524.49849
G1 X55.147 Y114.750 E1525.99383
G1 X52.147 Y117.750 E1526.12019
G1 X33.739 Y117.750 E1526.66844
G1 X33.739 Y38.250 E1529.03622
G0 F10500 X33.913 Y38.509
;TYPE:SKIN
G1 F3000 X34.099 Y39.048 E1529.05188
G1 X34.099 Y39.755 E1529.06750
G1 X34.099 Y40.463 E1529.08315
G1 X34.099 Y41.170 E1529.09877
G1 X34.099 Y41.877 E1529.11439
G1 X34.099 Y42.584 E1529.13002
G1 X34.099 Y43.291 E1529.14564
G1 X34.099 Y43.998 E1529.16127
G1 X34.099 Y44.705 E1529.17689
G1 X34.099 Y45.412 E1529.19251
G1 X34.099 Y46.119 E1529.20814
G1 X34.099 Y46.827 E1529.22379
G1 X34.099 Y47.534 E1529.23941
G1 X34.099 Y48.241 E1529.25503
G1 X34.099 Y48.948 E1529.27066
G1 X34.099 Y49.655 E1529.28628
G1 X34.099 Y50.362 E1529.30191
G1 X34.099 Y51.069 E1529.31753
G1 X34.099 Y51.776 E1529.33315
G1 X34.099 Y52.483 E1529.34878
G1 X34.099 Y53.190 E1529.36440
G1 X34.099 Y53.898 E1529.38005
G1 X34.099 Y54.605 E1529.39567
G1 X34.099 Y55.312 E1529.41130
G1 X34.099 Y56.019 E1529.42692
G1 X34.099 Y56.726 E1529.44255
G1 X34.099 Y57.433 E1529.45817
G1 X34.099 Y58.140 E1529.47379
G1 X34.099 Y58.847 E1529.48942
G1 X34.099 Y59.554 E1529.50504
G1 X34.099 Y60.262 E1529.52069
G1 X34.099 Y60.969 E1529.53631
G1 X34.099 Y61.676 E1529.55194
G1 X34.099 Y62.383 E1529.56756
G1 X34.099 Y63.090 E1529.58319
G1 X34.099 Y63.797 E1529.59881
G1 X34.099 Y64.504 E1529.61443
G1 X34.099 Y65.211 E1529.63006
G1 X34.099 Y65.918 E1529.64568
G1 X34.099 Y66.626 E1529.66133
G1 X34.099 Y67.333 E1529.67695
G1 X34.099 Y68.040 E1529.69258
G1 X34.099 Y68.747 E1529.70820
G1 X34.099 Y69.454 E1529.72383
G1 X34.099 Y70.161 E1529.73945
G1 X34.099 Y70.868 E1529.75507
G1 X34.099 Y71.575 E1529.77070
G1 X34.099 Y72.282 E1529.78632
G1 X34.099 Y72.989 E1529.80195
G1 X34.099 Y73.697 E1529.81759
G1 X34.099 Y74.404 E1529.83322
G1 X34.099 Y75.111 E1529.84884
G1 X34.099 Y75.818 E1529.86447
G1 X34.099 Y76.525 E1529.88009
G1 X34.099 Y77.232 E1529.89571
G1 X34.099 Y77.939 E1529.91134
G1 X34.099 Y78.646 E1529.92696
G1 X34.099 Y79.353 E1529.94259
G1 X34.099 Y80.061 E1529.95823
G1 X34.099 Y80.768 E1529.97386
G1 X34.099 Y81.475 E1529.98948
G1 X34.099 Y82.182 E1530.00510
G1 X34.099 Y82.889 E1530.02073
G1 X34.099 Y83.596 E1530.03635
G1 X34.099 Y84.303 E1530.05198
G1 X34.099 Y85.010 E1530.06760
G1 X34.099 Y85.717 E1530.08323
G1 X34.099 Y86.425 E1530.09887
G1 X34.099 Y87.132 E1530.11450
G1 X34.099 Y87.839 E1530.13012
G1 X34.099 Y88.546 E1530.14574
G1 X34.099 Y89.253 E1530.16137
G1 X34.099 Y89.960 E1530.17699
G1 X34.099 Y90.667 E1530.19262
G1 X34.099 Y91.374 E1530.20824
G1 X34.099 Y92.081 E1530.22387
G1 X34.099 Y92.788 E1530.23949
G1 X34.099 Y93.496 E1530.25514
G1 X34.099 Y94.203 E1530.27076
G1 X34.099 Y94.910 E1530.28638
G1 X34.099 Y95.617 E1530.30201
G1 X34.099 Y96.324 E1530.31763
G1 X34.099 Y97.031 E1530.33326
G1 X34.099 Y97.738 E1530.34888
G1 X34.099 Y98.445 E1530.36451
G1 X34.099 Y99.152 E1530.38013
G1 X34.099 Y99.860 E1530.39578
G1 X34.099 Y100.567 E1530.41140
G1 X34.099 Y101.274 E1530.42702
G1 X34.099 Y101.981 E1530.44265
G1 X34.099 Y102.688 E1530.45827
G1 X34.099 Y103.395 E1530.47390
G1 X34.099 Y104.102 E1530.48952
G1 X34.099 Y104.809 E1530.50515
G1 X34.099 Y105.516 E1530.52077
G1 X34.099 Y106.223 E1530.53639
G1 X34.099 Y106.931 E1530.55204
G1 X34.099 Y107.638 E1530.56766
G1 X34.099 Y108.345 E1530.58329
G1 X34.099 Y109.052 E1530.59891
G1 X34.099 Y109.759 E1530.61454
G1 X34.099 Y110.466 E1530.63016
G1 X34.099 Y111.173 E1530.64578
G1 X34.099 Y111.880 E1530.66141
G1 X34.099 Y112.587 E1530.67703
G1 X34.099 Y113.295 E1530.69268
G1 X34.099 Y114.002 E1530.70830
G1 X34.099 Y114.709 E1530.72393
G1 X34.099 Y115.416 E1530.73955
G1 X34.099 Y116.123 E1530.75518
G1 X34.099 Y116.830 E1530.77080
G1 X34.285 Y117.370 E1530.78781
;LAYER:7
G0 F10500 X34.194 Y117.250 Z3.085
;TYPE:WALL-OUTER
G1 F1800 X51.941 Y117.250 E1531.31638
G1 X54.941 Y114.250 E1531.44274
G1 X105.560 Y114.250 E1532.95034
G1 X108.560 Y117.250 E1533.07670
G1 X134.500 Y117.250 E1533.84928
G1 X134.500 Y96.310 E1534.47295
G1 X131.500 Y93.310 E1534.59931
G1 X131.500 Y62.690 E1535.51127
G1 X134.500 Y59.690 E1535.63763
G1 X134.500 Y38.750 E1536.26130
G1 X108.560 Y38.750 E1537.03388
G1 X105.560 Y41.750 E1537.16024
G1 X54.941 Y41.750 E1538.66784
G1 X51.941 Y38.750 E1538.79420
G1 X34.194 Y38.750 E1539.32277
G1 X34.194 Y117.250 E1541.66077
G0 F10500 X33.473 Y117.750
G1 F1800 X33.473 Y38.250 E1544.02854
G1 X52.147 Y38.250 E1544.58472
G1 X55.147 Y41.250 E1544.71108
G1 X105.354 Y41.250 E1546.20641
G1 X108.354 Y38.250 E1546.33277
G1 X135.000 Y38.250 E1547.12638
G1 X135.000 Y59.896 E1547.77107
G1 X132.000 Y62.896 E1547.89743
G1 X132.000 Y93.103 E1548.79710
G1 X135.000 Y96.103 E1548.92346
G1 X135.000 Y117.750 E1549.56818
G1 X108.354 Y117.750 E1550.36179
G1 X105.354 Y114.750 E1550.48815
G1 X55.147 Y114.750 E1551.98348
G1 X52.147 Y117.750 E1552.10984
G1 X33.473 Y117.750 E1552.66602
G0 F10500 X33.648 Y117.318
;TYPE:SKIN
G1 F3000 X33.833 Y116.779 E1552.68160
G1 X33.833 Y116.072 E1552.69714
G1 X33.833 Y115.365 E1552.71268
G1 X33.833 Y114.658 E1552.72822
G1 X33.833 Y113.951 E1552.74376
G1 X33.833 Y113.244 E1552.75930
G1 X33.833 Y112.537 E1552.77484
G1 X33.833 Y111.830 E1552.79038
G1 X33.833 Y111.122 E1552.80594
G1 X33.833 Y110.415 E1552.82148
G1 X33.833 Y109.708 E1552.83702
G1 X33.833 Y109.001 E1552.85256
G1 X33.833 Y108.294 E1552.86810
G1 X33.833 Y107.587 E1552.88364
G1 X33.833 Y106.880 E1552.89918
G1 X33.833 Y106.173 E1552.91472
G1 X33.833 Y105.466 E1552.93026
G1 X33.833 Y104.758 E1552.94582
G1 X33.833 Y104.051 E1552.96136
G1 X33.833 Y103.344 E1552.97690
G1 X33.833 Y102.637 E1552.99244
G1 X33.833 Y101.930 E1553.00798
G1 X33.833 Y101.223 E1553.02352
G1 X33.833 Y100.516 E1553.03906
G1 X33.833 Y99.809 E1553.05460
G1 X33.833 Y99.102 E1553.07014
G1 X33.833 Y98.395 E1553.08568
G1 X33.833 Y97.687 E1553.10124
G1 X33.833 Y96.980 E1553.11678
G1 X33.833 Y96.273 E1553.13232
G1 X33.833 Y95.566 E1553.14786
G1 X33.833 Y94.859 E1553.16340
G1 X33.833 Y94.152 E1553.17894
G1 X33.833 Y93.445 E1553.19448
G1 X33.833 Y92.738 E1553.21002
G1 X33.833 Y92.031 E1553.22556
G1 X33.833 Y91.323 E1553.24113
G1 X33.833 Y90.616 E1553.25667
G1 X33.833 Y89.909 E1553.27221
G1 X33.833 Y89.202 E1553.28775
G1 X33.833 Y88.495 E1553.30328
G1 X33.833 Y87.788 E1553.31882
G1 X33.833 Y87.081 E1553.33436
G1 X33.833 Y86.374 E1553.34990
G1 X33.833 Y85.667 E1553.36544
G1 X33.833 Y84.960 E1553.38098
G1 X33.833 Y84.252 E1553.39655
G1 X33.833 Y83.545 E1553.41209
G1 X33.833 Y82.838 E1553.42763
G1 X33.833 Y82.131 E1553.44317
G1 X33.833 Y81.424 E1553.45871
G1 X33.833 Y80.717 E1553.47425
G1 X33.833 Y80.010 E1553.48979
G1 X33.833 Y79.303 E1553.50533
G1 X33.833 Y78.596 E1553.52087
G1 X33.833 Y77.888 E1553.53643
G1 X33.833 Y77.181 E1553.55197
G1 X33.833 Y76.474 E1553.56751
G1 X33.833 Y75.767 E1553.58305
G1 X33.833 Y75.060 E1553.59859
G1 X33.833 Y74.353 E1553.61413
G1 X33.833 Y73.646 E1553.62967
G1 X33.833 Y72.939 E1553.64521
G1 X33.833 Y72.232 E1553.66075
G1 X33.833 Y71.524 E1553.67631
G1 X33.833 Y70.817 E1553.69185
G1 X33.833 Y70.110 E1553.70739
G1 X33.833 Y69.403 E1553.72293
G1 X33.833 Y68.696 E1553.73847
G1 X33.833 Y67.989 E1553.75401
G1 X33.833 Y67.282 E1553.76955
G1 X33.833 Y66.575 E1553.78509
G1 X33.833 Y65.868 E1553.80063
G1 X33.833 Y65.161 E1553.81617
G1 X33.833 Y64.453 E1553.83173
G1 X33.833 Y63.746 E1553.84727
G1 X33.833 Y63.039 E1553.86281
G1 X33.833 Y62.332 E1553.87835
G1 X33.833 Y61.625 E1553.89389
G1 X33.833 Y60.918 E1553.90943
G1 X33.833 Y60.211 E1553.92497
G1 X33.833 Y59.504 E1553.94051
G1 X33.833 Y58.797 E1553.95605
G1 X33.833 Y58.089 E1553.97161
G1 X33.833 Y57.382 E1553.98715
G1 X33.833 Y56.675 E1554.00269
G1 X33.833 Y55.968 E1554.01823
G1 X33.833 Y55.261 E1554.03377
G1 X33.833 Y54.554 E1554.04931
G1 X33.833 Y53.847 E1554.06485
G1 X33.833 Y53.140 E1554.08039
G1 X33.833 Y52.433 E1554.09593
G1 X33.833 Y51.725 E1554.11149
G1 X33.833 Y51.018 E1554.12703
G1 X33.833 Y50.311 E1554.14257
G1 X33.833 Y49.604 E1554.15811
G1 X33.833 Y48.897 E1554.17365
G1 X33.833 Y48.190 E1554.18919
G1 X33.833 Y47.483 E1554.20473
G1 X33.833 Y46.776 E1554.22027
G1 X33.833 Y46.069 E1554.23581
G1 X33.833 Y45.362 E1554.25135
G1 X33.833 Y44.654 E1554.26692
G1 X33.833 Y43.947 E1554.28246
G1 X33.833 Y43.240 E1554.29800
G1 X33.833 Y42.533 E1554.31354
G1 X33.833 Y41.826 E1554.32908
G1 X33.833 Y41.119 E1554.34462
G1 X33.833 Y40.412 E1554.36016
G1 X33.833 Y39.705 E1554.37570
G1 X33.833 Y38.998 E1554.39124
G1 X34.018 Y38.459 E1554.40821
;LAYER:8
G0 F10500 X33.927 Y38.750 Z3.465
;TYPE:WALL-OUTER
G1 F1800 X33.927 Y117.250 E1556.74620
G1 X51.941 Y117.250 E1557.28272
G1 X54.941 Y114.250 E1557.40908
G1 X105.560 Y114.250 E1558.91669
G1 X108.560 Y117.250 E1559.04305
G1 X134.500 Y117.250 E1559.81563
G1 X134.500 Y96.310 E1560.43929
G1 X131.500 Y93.310 E1560.56565
G1 X131.500 Y62.690 E1561.47762
G1 X134.500 Y59.690 E1561.60398
G1 X134.500 Y38.750 E1562.22764
G1 X108.560 Y38.750 E1563.00022
G1 X105.560 Y41.750 E1563.12658
G1 X54.941 Y41.750 E1564.63419
G1 X51.941 Y38.750 E1564.76055
G1 X33.927 Y38.750 E1565.29707
G0 F10500 X33.207 Y38.250
G1 F1800 X52.147 Y38.250 E1565.86116
G1 X55.147 Y41.250 E1565.98752
G1 X105.354 Y41.250 E1567.48286
G1 X108.354 Y38.250 E1567.60922
G1 X135.000 Y38.250 E1568.40283
G1 X135.000 Y59.896 E1569.04752
G1 X132.000 Y62.896 E1569.17388
G1 X132.000 Y93.103 E1570.07354
G1 X135.000 Y96.103 E1570.19991
G1 X135.000 Y117.750 E1570.84463
G1 X108.354 Y117.750 E1571.63823
G1 X105.354 Y114.750 E1571.76459
G1 X55.147 Y114.750 E1573.25993
G1 X52.147 Y117.750 E1573.38629
G1 X33.207 Y117.750 E1573.95039
G1 X33.207 Y38.250 E1576.31816
G0 F10500 X33.381 Y38.685
;TYPE:SKIN
G1 F3000 X33.566 Y39.223 E1576.33375
G1 X33.566 Y39.930 E1576.34929
G1 X33.566 Y40.637 E1576.36483
G1 X33.566 Y41.344 E1576.38037
G1 X33.566 Y42.052 E1576.39598
G1 X33.566 Y42.759 E1576.41156
G1 X33.566 Y43.466 E1576.42714
G1 X33.566 Y44.173 E1576.44272
G1 X33.566 Y44.880 E1576.45831
G1 X33.566 Y45.587 E1576.47385
G1 X33.566 Y46.294 E1576.48939
G1 X33.566 Y47.001 E1576.50493
G1 X33.566 Y47.708 E1576.52047
G1 X33.566 Y48.416 E1576.53607
G1 X33.566 Y49.123 E1576.55165
G1 X33.566 Y49.830 E1576.56723
G1 X33.566 Y50.537 E1576.58282
G1 X33.566 Y51.244 E1576.59840
G1 X33.566 Y51.951 E1576.61394
G1 X33.566 Y52.658 E1576.62948
G1 X33.566 Y53.365 E1576.64502
G1 X33.566 Y54.072 E1576.66056
G1 X33.566 Y54.779 E1576.67610
G1 X33.566 Y55.487 E1576.69170
G1 X33.566 Y56.194 E1576.70728
G1 X33.566 Y56.901 E1576.72287
G1 X33.566 Y57.608 E1576.73845
G1 X33.566 Y58.315 E1576.75403
G1 X33.566 Y59.022 E1576.76957
G1 X33.566 Y59.729 E1576.78511
G1 X33.566 Y60.436 E1576.80065
G1 X33.566 Y61.143 E1576.81619
G1 X33.566 Y61.851 E1576.83179
G1 X33.566 Y62.558 E1576.84738
G1 X33.566 Y63.265 E1576.86296
G1 X33.566 Y63.972 E1576.87854
G1 X33.566 Y64.679 E1576.89412
G1 X33.566 Y65.386 E1576.90966
G1 X33.566 Y66.093 E1576.92520
G1 X33.566 Y66.800 E1576.94074
G1 X33.566 Y67.507 E1576.95628
G1 X33.566 Y68.215 E1576.97189
G1 X33.566 Y68.922 E1576.98747
G1 X33.566 Y69.629 E1577.00305
G1 X33.566 Y70.336 E1577.01863
G1 X33.566 Y71.043 E1577.03421
G1 X33.566 Y71.750 E1577.04975
G1 X33.566 Y72.457 E1577.06529
G1 X33.566 Y73.164 E1577.08083
G1 X33.566 Y73.871 E1577.09637
G1 X33.566 Y74.578 E1577.11191
G1 X33.566 Y75.286 E1577.12752
G1 X33.566 Y75.993 E1577.14310
G1 X33.566 Y76.700 E1577.15868
G1 X33.566 Y77.407 E1577.17426
G1 X33.566 Y78.114 E1577.18985
G1 X33.566 Y78.821 E1577.20539
G1 X33.566 Y79.528 E1577.22093
G1 X33.566 Y80.235 E1577.23647
G1 X33.566 Y80.942 E1577.25201
G1 X33.566 Y81.650 E1577.26761
G1 X33.566 Y82.357 E1577.28319
G1 X33.566 Y83.064 E1577.29877
G1 X33.566 Y83.771 E1577.31436
G1 X33.566 Y84.478 E1577.32994
G1 X33.566 Y85.185 E1577.34548
G1 X33.566 Y85.892 E1577.36102
G1 X33.566 Y86.599 E1577.37656
G1 X33.566 Y87.306 E1577.39210
G1 X33.566 Y88.013 E1577.40764
G1 X33.566 Y88.721 E1577.42324
G1 X33.566 Y89.428 E1577.43882
G1 X33.566 Y90.135 E1577.45441
G1 X33.566 Y90.842 E1577.46999
G1 X33.566 Y91.549 E1577.48553
G1 X33.566 Y92.256 E1577.50107
G1 X33.566 Y92.963 E1577.51661
G1 X33.566 Y93.670 E1577.53215
G1 X33.566 Y94.377 E1577.54769
G1 X33.566 Y95.085 E1577.56329
G1 X33.566 Y95.792 E1577.57887
G1 X33.566 Y96.499 E1577.59446
G1 X33.566 Y97.206 E1577.61004
G1 X33.566 Y97.913 E1577.62562
G1 X33.566 Y98.620 E1577.64116
G1 X33.566 Y99.327 E1577.65670
G1 X33.566 Y100.034 E1577.67224
G1 X33.566 Y100.741 E1577.68778
G1 X33.566 Y101.449 E1577.70339
G1 X33.566 Y102.156 E1577.71897
G1 X33.566 Y102.863 E1577.73455
G1 X33.566 Y103.570 E1577.75013
G1 X33.566 Y104.277 E1577.76571
G1 X33.566 Y104.984 E1577.78125
G1 X33.566 Y105.691 E1577.79679
G1 X33.566 Y106.398 E1577.81233
G1 X33.566 Y107.105 E1577.82787
G1 X33.566 Y107.812 E1577.84341
G1 X33.566 Y108.520 E1577.85902
G1 X33.566 Y109.227 E1577.87460
G1 X33.566 Y109.934 E1577.89018
G1 X33.566 Y110.641 E1577.90576
G1 X33.566 Y111.348 E1577.92135
G1 X33.566 Y112.055 E1577.93689
G1 X33.566 Y112.762 E1577.95243
G1 X33.566 Y113.469 E1577.96797
G1 X33.566 Y114.176 E1577.98351
G1 X33.566 Y114.884 E1577.99911
G1 X33.566 Y115.591 E1578.01469
G1 X33.566 Y116.298 E1578.03027
G1 X33.566 Y117.005 E1578.04586
G1 X33.752 Y117.544 E1578.06284
;LAYER:9
G0 F10500 X33.661 Y117.250 Z3.845
;TYPE:WALL-OUTER
G1 F1800 X51.941 Y117.250 E1578.60728
G1 X54.941 Y114.250 E1578.73364
G1 X105.560 Y114.250 E1580.24124
G1 X108.560 Y117.250 E1580.36760
G1 X134.500 Y117.250 E1581.14018
G1 X134.500 Y96.310 E1581.76385
G1 X131.500 Y93.310 E1581.89021
G1 X131.500 Y62.690 E1582.80218
G1 X134.500 Y59.690 E1582.92854
G1 X134.500 Y38.750 E1583.55220
G1 X108.560 Y38.750 E1584.32478
G1 X105.560 Y41.750 E1584.45114
G1 X54.941 Y41.750 E1585.95875
G1 X51.941 Y38.750 E1586.08511
G1 X33.661 Y38.750 E1586.62955
G1 X33.661 Y117.250 E1588.96754
G0 F10500 X32.941 Y117.750
G1 F1800 X32.941 Y38.250 E1591.33532
G1 X52.147 Y38.250 E1591.90734
G1 X55.147 Y41.250 E1592.03370
G1 X105.354 Y41.250 E1593.52903
G1 X108.354 Y38.250 E1593.65539
G1 X135.000 Y38.250 E1594.44900
G1 X135.000 Y59.896 E1595.09369
G1 X132.000 Y62.896 E1595.22005
G1 X132.000 Y93.103 E1596.11972
G1 X135.000 Y96.103 E1596.24608
G1 X135.000 Y117.750 E1596.89080
G1 X108.354 Y117.750 E1597.68441
G1 X105.354 Y114.750 E1597.81077
G1 X55.147 Y114.750 E1599.30610
G1 X52.147 Y117.750 E1599.43246
G1 X32.941 Y117.750 E1600.00448
G0 F10500 X33.393 Y117.574
;TYPE:SKIN
G1 F3000 X33.300 Y117.312 E1600.00834
G1 X33.300 Y116.605 E1600.02388
G1 X33.300 Y115.898 E1600.03942
G1 X33.300 Y115.191 E1600.05496
G1 X33.300 Y114.484 E1600.07050
G1 X33.300 Y113.777 E1600.08604
G1 X33.300 Y113.069 E1600.10160
G1 X33.300 Y112.362 E1600.11714
G1 X33.300 Y111.655 E1600.13268
G1 X33.300 Y110.948 E1600.14822
G1 X33.300 Y110.241 E1600.16376
G1 X33.300 Y109.534 E1600.17930
G1 X33.300 Y108.827 E1600.19484
G1 X33.300 Y108.120 E1600.21038
G1 X33.300 Y107.413 E1600.22592
G1 X33.300 Y106.705 E1600.24149
G1 X33.300 Y105.998 E1600.25703
G1 X33.300 Y105.291 E1600.27257
G1 X33.300 Y104.584 E1600.28811
G1 X33.300 Y103.877 E1600.30365
G1 X33.300 Y103.170 E1600.31919
G1 X33.300 Y102.463 E1600.33473
G1 X33.300 Y101.756 E1600.35027
G1 X33.300 Y101.049 E1600.36581
G1 X33.300 Y100.341 E1600.38137
G1 X33.300 Y99.634 E1600.39691
G1 X33.300 Y98.927 E1600.41245
G1 X33.300 Y98.220 E1600.42799
G1 X33.300 Y97.513 E1600.44353
G1 X33.300 Y96.806 E1600.45907
G1 X33.300 Y96.099 E1600.47461
G1 X33.300 Y95.392 E1600.49015
G1 X33.300 Y94.685 E1600.50569
G1 X33.300 Y93.978 E1600.52123
G1 X33.300 Y93.270 E1600.53679
G1 X33.300 Y92.563 E1600.55233
G1 X33.300 Y91.856 E1600.56787
G1 X33.300 Y91.149 E1600.58341
G1 X33.300 Y90.442 E1600.59895
G1 X33.300 Y89.735 E1600.61449
G1 X33.300 Y89.028 E1600.63003
G1 X33.300 Y88.321 E1600.64557
G1 X33.300 Y87.614 E1600.66111
G1 X33.300 Y86.906 E1600.67667
G1 X33.300 Y86.199 E1600.69221
G1 X33.300 Y85.492 E1600.70775
G1 X33.300 Y84.785 E1600.72329
G1 X33.300 Y84.078 E1600.73883
G1 X33.300 Y83.371 E1600.75437
G1 X33.300 Y82.664 E1600.76991
G1 X33.300 Y81.957 E1600.78545
G1 X33.300 Y81.250 E1600.80099
G1 X33.300 Y80.542 E1600.81655
G1 X33.300 Y79.835 E1600.83209
G1 X33.300 Y79.128 E1600.84763
G1 X33.300 Y78.421 E1600.86317
G1 X33.300 Y77.714 E1600.87871
G1 X33.300 Y77.007 E1600.89425
G1 X33.300 Y76.300 E1600.90979
G1 X33.300 Y75.593 E1600.92533
G1 X33.300 Y74.886 E1600.94087
G1 X33.300 Y74.179 E1600.95641
G1 X33.300 Y73.471 E1600.97197
G1 X33.300 Y72.764 E1600.98751
G1 X33.300 Y72.057 E1601.00305
G1 X33.300 Y71.350 E1601.01859
G1 X33.300 Y70.643 E1601.03413
G1 X33.300 Y69.936 E1601.04967
G1 X33.300 Y69.229 E1601.06521
G1 X33.300 Y68.522 E1601.08075
G1 X33.300 Y67.815 E1601.09629
G1 X33.300 Y67.107 E1601.11185
G1 X33.300 Y66.400 E1601.12739
G1 X33.300 Y65.693 E1601.14293
G1 X33.300 Y64.986 E1601.15847
G1 X33.300 Y64.279 E1601.17401
G1 X33.300 Y63.572 E1601.18955
G1 X33.300 Y62.865 E1601.20509
G1 X33.300 Y62.158 E1601.22063
G1 X33.300 Y61.451 E1601.23617
G1 X33.300 Y60.744 E1601.25171
G1 X33.300 Y60.036 E1601.26728
G1 X33.300 Y59.329 E1601.28282
G1 X33.300 Y58.622 E1601.29836
G1 X33.300 Y57.915 E1601.31390
G1 X33.300 Y57.208 E1601.32944
G1 X33.300 Y56.501 E1601.34498
G1 X33.300 Y55.794 E1601.36052
G1 X33.300 Y55.087 E1601.37606
G1 X33.300 Y54.380 E1601.39160
G1 X33.300 Y53.672 E1601.40716
G1 X33.300 Y52.965 E1601.42270
G1 X33.300 Y52.258 E1601.43824
G1 X33.300 Y51.551 E1601.45378
G1 X33.300 Y50.844 E1601.46932
G1 X33.300 Y50.137 E1601.48486
G1 X33.300 Y49.430 E1601.50040
G1 X33.300 Y48.723 E1601.51594
G1 X33.300 Y48.016 E1601.53148
G1 X33.300 Y47.308 E1601.54704
G1 X33.300 Y46.601 E1601.56258
G1 X33.300 Y45.894 E1601.57812
G1 X33.300 Y45.187 E1601.59366
G1 X33.300 Y44.480 E1601.60920
G1 X33.300 Y43.773 E1601.62474
G1 X33.300 Y43.066 E1601.64028
G1 X33.300 Y42.359 E1601.65582
G1 X33.300 Y41.652 E1601.67136
G1 X33.300 Y40.945 E1601.68690
G1 X33.300 Y40.237 E1601.70246
G1 X33.300 Y39.530 E1601.71800
G1 X33.300 Y38.823 E1601.73354
G1 X33.347 Y38.424 E1601.74551
;LAYER:10
G0 F10500 X33.395 Y38.750 Z4.225
;TYPE:WALL-OUTER
G1 F1800 X33.395 Y117.250 E1604.08350
G1 X51.941 Y117.250 E1604.63586
G1 X54.941 Y114.250 E1604.76223
G1 X105.560 Y114.250 E1606.26983
G1 X108.560 Y117.250 E1606.39619
G1 X134.500 Y117.250 E1607.16877
G1 X134.500 Y96.310 E1607.79244
G1 X131.500 Y93.310 E1607.91880
G1 X131.500 Y62.690 E1608.83076
G1 X134.500 Y59.690 E1608.95712
G1 X134.500 Y38.750 E1609.58079
G1 X108.560 Y38.750 E1610.35337
G1 X105.560 Y41.750 E1610.47973
G1 X54.941 Y41.750 E1611.98733
G1 X51.941 Y38.750 E1612.11369
G1 X33.395 Y38.750 E1612.66606
G0 F10500 X32.675 Y38.250
G1 F1800 X52.147 Y38.250 E1613.24600
G1 X55.147 Y41.250 E1613.37236
G1 X105.354 Y41.250 E1614.86769
G1 X108.354 Y38.250 E1614.99405
G1 X135.000 Y38.250 E1615.78766
G1 X135.000 Y59.896 E1616.43235
G1 X132.000 Y62.896 E1616.55871
G1 X132.000 Y93.103 E1617.45838
G1 X135.000 Y96.103 E1617.58474
G1 X135.000 Y117.750 E1618.22946
G1 X108.354 Y117.750 E1619.02307
G1 X105.354 Y114.750 E1619.14943
G1 X55.147 Y114.750 E1620.64476
G1 X52.147 Y117.750 E1620.77112
G1 X32.675 Y117.750 E1621.35106
G1 X32.675 Y38.250 E1623.71884
G0 F10500 X33.121 Y38.424
;TYPE:SKIN
G1 F3000 X33.035 Y38.691 E1623.72302
G1 X33.035 Y39.398 E1623.73856
G1 X33.035 Y40.106 E1623.75412
G1 X33.035 Y40.813 E1623.76966
G1 X33.035 Y41.520 E1623.78520
G1 X33.035 Y42.227 E1623.80074
G1 X33.035 Y42.934 E1623.81628
G1 X33.035 Y43.641 E1623.83182
G1 X33.035 Y44.348 E1623.84736
G1 X33.035 Y45.055 E1623.86290
G1 X33.035 Y45.762 E1623.87844
G1 X33.035 Y46.470 E1623.89400
G1 X33.035 Y47.177 E1623.90954
G1 X33.035 Y47.884 E1623.92508
G1 X33.035 Y48.591 E1623.94062
G1 X33.035 Y49.298 E1623.95616
G1 X33.035 Y50.005 E1623.97170
G1 X33.035 Y50.712 E1623.98724
G1 X33.035 Y51.419 E1624.00278
G1 X33.035 Y52.126 E1624.01832
G1 X33.035 Y52.834 E1624.03388
G1 X33.035 Y53.541 E1624.04942
G1 X33.035 Y54.248 E1624.06496
G1 X33.035 Y54.955 E1624.08050
G1 X33.035 Y55.662 E1624.09604
G1 X33.035 Y56.369 E1624.11158
G1 X33.035 Y57.076 E1624.12712
G1 X33.035 Y57.783 E1624.14266
G1 X33.035 Y58.490 E1624.15820
G1 X33.035 Y59.197 E1624.17374
G1 X33.035 Y59.905 E1624.18931
G1 X33.035 Y60.612 E1624.20485
G1 X33.035 Y61.319 E1624.22039
G1 X33.035 Y62.026 E1624.23593
G1 X33.035 Y62.733 E1624.25147
G1 X33.035 Y63.440 E1624.26701
G1 X33.035 Y64.147 E1624.28255
G1 X33.035 Y64.854 E1624.29809
G1 X33.035 Y65.561 E1624.31363
G1 X33.035 Y66.269 E1624.32919
G1 X33.035 Y66.976 E1624.34473
G1 X33.035 Y67.683 E1624.36027
G1 X33.035 Y68.390 E1624.37581
G1 X33.035 Y69.097 E1624.39135
G1 X33.035 Y69.804 E1624.40689
G1 X33.035 Y70.511 E1624.42243
G1 X33.035 Y71.218 E1624.43797
G1 X33.035 Y71.925 E1624.45351
G1 X33.035 Y72.633 E1624.46907
G1 X33.035 Y73.340 E1624.48461
G1 X33.035 Y74.047 E1624.50015
G1 X33.035 Y74.754 E1624.51569
G1 X33.035 Y75.461 E1624.53123
G1 X33.035 Y76.168 E1624.54677
G1 X33.035 Y76.875 E1624.56231
G1 X33.035 Y77.582 E1624.57785
G1 X33.035 Y78.289 E1624.59339
G1 X33.035 Y78.996 E1624.60893
G1 X33.035 Y79.704 E1624.62449
G1 X33.035 Y80.411 E1624.64003
G1 X33.035 Y81.118 E1624.65557
G1 X33.035 Y81.825 E1624.67111
G1 X33.035 Y82.532 E1624.68665
G1 X33.035 Y83.239 E1624.70219
G1 X33.035 Y83.946 E1624.71773
G1 X33.035 Y84.653 E1624.73327
G1 X33.035 Y85.360 E1624.74881
G1 X33.035 Y86.068 E1624.76437
G1 X33.035 Y86.775 E1624.77991
G1 X33.035 Y87.482 E1624.79545
G1 X33.035 Y88.189 E1624.81099
G1 X33.035 Y88.896 E1624.82653
G1 X33.035 Y89.603 E1624.84207
G1 X33.035 Y90.310 E1624.85761
G1 X33.035 Y91.017 E1624.87315
G1 X33.035 Y91.724 E1624.88869
G1 X33.035 Y92.431 E1624.90423
G1 X33.035 Y93.139 E1624.91979
G1 X33.035 Y93.846 E1624.93533
G1 X33.035 Y94.553 E1624.95087
G1 X33.035 Y95.260 E1624.96641
G1 X33.035 Y95.967 E1624.98195
G1 X33.035 Y96.674 E1624.99749
G1 X33.035 Y97.381 E1625.01303
G1 X33.035 Y98.088 E1625.02857
G1 X33.035 Y98.795 E1625.04411
G1 X33.035 Y99.503 E1625.05968
G1 X33.035 Y100.210 E1625.07522
G1 X33.035 Y100.917 E1625.09076
G1 X33.035 Y101.624 E1625.10630
G1 X33.035 Y102.331 E1625.12184
G1 X33.035 Y103.038 E1625.13738
G1 X33.035 Y103.745 E1625.15292
G1 X33.035 Y104.452 E1625.16846
G1 X33.035 Y105.159 E1625.18400
G1 X33.035 Y105.867 E1625.19956
G1 X33.035 Y106.574 E1625.21510
G1 X33.035 Y107.281 E1625.23064
G1 X33.035 Y107.988 E1625.24618
G1 X33.035 Y108.695 E1625.26172
G1 X33.035 Y109.402 E1625.27726
G1 X33.035 Y110.109 E1625.29280
G1 X33.035 Y110.816 E1625.30834
G1 X33.035 Y111.523 E1625.32388
G1 X33.035 Y112.230 E1625.33942
G1 X33.035 Y112.938 E1625.35498
G1 X33.035 Y113.645 E1625.37052
G1 X33.035 Y114.352 E1625.38606
G1 X33.035 Y115.059 E1625.40160
G1 X33.035 Y115.766 E1625.41714
G1 X33.035 Y116.473 E1625.43268
G1 X33.035 Y117.180 E1625.44822
G1 X33.074 Y117.574 E1625.46001
;LAYER:11
G0 F10500 X33.129 Y117.250 Z4.605
;TYPE:WALL-OUTER
G1 F1800 X51.941 Y117.250 E1626.02030
G1 X54.941 Y114.250 E1626.14666
G1 X105.560 Y114.250 E1627.65426
G1 X108.560 Y117.250 E1627.78062
G1 X134.500 Y117.250 E1628.55320
G1 X134.500 Y96.310 E1629.17687
G1 X131.500 Y93.310 E1629.30323
G1 X131.500 Y62.690 E1630.21519
G1 X134.500 Y59.690 E1630.34155
G1 X134.500 Y38.750 E1630.96522
G1 X108.560 Y38.750 E1631.73780
G1 X105.560 Y41.750 E1631.86416
G1 X54.941 Y41.750 E1633.37176
G1 X51.941 Y38.750 E1633.49812
G1 X33.129 Y38.750 E1634.05841
G1 X33.129 Y117.250 E1636.39640
G0 F10500 X32.409 Y117.750
G1 F1800 X32.409 Y38.250 E1638.76418
G1 X52.147 Y38.250 E1639.35205
G1 X55.147 Y41.250 E1639.47841
G1 X105.354 Y41.250 E1640.97374
G1 X108.354 Y38.250 E1641.10010
G1 X135.000 Y38.250 E1641.89371
G1 X135.000 Y59.896 E1642.53840
G1 X132.000 Y62.896 E1642.66476
G1 X132.000 Y93.103 E1643.56443
G1 X135.000 Y96.103 E1643.69079
G1 X135.000 Y117.750 E1644.33551
G1 X108.354 Y117.750 E1645.12912
G1 X105.354 Y114.750 E1645.25548
G1 X55.147 Y114.750 E1646.75081
G1 X52.147 Y117.750 E1646.87717
G1 X32.409 Y117.750 E1647.46504
G0 F10500 X32.685 Y117.574
;TYPE:SKIN
G1 F3000 X32.769 Y117.137 E1647.47630
G1 X32.769 Y116.430 E1647.49184
G1 X32.769 Y115.722 E1647.50740
G1 X32.769 Y115.015 E1647.52294
G1 X32.769 Y114.308 E1647.53848
G1 X32.769 Y113.601 E1647.55402
G1 X32.769 Y112.894 E1647.56956
G1 X32.769 Y112.187 E1647.58510
G1 X32.769 Y111.480 E1647.60064
G1 X32.769 Y110.773 E1647.61618
G1 X32.769 Y110.066 E1647.63172
G1 X32.769 Y109.359 E1647.64726
G1 X32.769 Y108.651 E1647.66282
G1 X32.769 Y107.944 E1647.67836
G1 X32.769 Y107.237 E1647.69390
G1 X32.769 Y106.530 E1647.70944
G1 X32.769 Y105.823 E1647.72498
G1 X32.769 Y105.116 E1647.74052
G1 X32.769 Y104.409 E1647.75606
G1 X32.769 Y103.702 E1647.77160
G1 X32.769 Y102.995 E1647.78714
G1 X32.769 Y102.287 E1647.80271
G1 X32.769 Y101.580 E1647.81825
G1 X32.769 Y100.873 E1647.83379
G1 X32.769 Y100.166 E1647.84933
G1 X32.769 Y99.459 E1647.86487
G1 X32.769 Y98.752 E1647.88041
G1 X32.769 Y98.045 E1647.89595
G1 X32.769 Y97.338 E1647.91149
G1 X32.769 Y96.631 E1647.92703
G1 X32.769 Y95.923 E1647.94259
G1 X32.769 Y95.216 E1647.95813
G1 X32.769 Y94.509 E1647.97367
G1 X32.769 Y93.802 E1647.98921
G1 X32.769 Y93.095 E1648.00475
G1 X32.769 Y92.388 E1648.02029
G1 X32.769 Y91.681 E1648.03583
G1 X32.769 Y90.974 E1648.05137
G1 X32.769 Y90.267 E1648.06691
G1 X32.769 Y89.560 E1648.08245
G1 X32.769 Y88.852 E1648.09801
G1 X32.769 Y88.145 E1648.11355
G1 X32.769 Y87.438 E1648.12909
G1 X32.769 Y86.731 E1648.14463
G1 X32.769 Y86.024 E1648.16017
G1 X32.769 Y85.317 E1648.17571
G1 X32.769 Y84.610 E1648.19125
G1 X32.769 Y83.903 E1648.20679
G1 X32.769 Y83.196 E1648.22233
G1 X32.769 Y82.488 E1648.23789
G1 X32.769 Y81.781 E1648.25343
G1 X32.769 Y81.074 E1648.26897
G1 X32.769 Y80.367 E1648.28451
G1 X32.769 Y79.660 E1648.30005
G1 X32.769 Y78.953 E1648.31559
G1 X32.769 Y78.246 E1648.33113
G1 X32.769 Y77.539 E1648.34667
G1 X32.769 Y76.832 E1648.36221
G1 X32.769 Y76.124 E1648.37777
G1 X32.769 Y75.417 E1648.39331
G1 X32.769 Y74.710 E1648.40885
G1 X32.769 Y74.003 E1648.42439
G1 X32.769 Y73.296 E1648.43993
G1 X32.769 Y72.589 E1648.45547
G1 X32.769 Y71.882 E1648.47101
G1 X32.769 Y71.175 E1648.48655
G1 X32.769 Y70.468 E1648.50209
G1 X32.769 Y69.761 E1648.51763
G1 X32.769 Y69.053 E1648.53319
G1 X32.769 Y68.346 E1648.54873
G1 X32.769 Y67.639 E1648.56427
G1 X32.769 Y66.932 E1648.57981
G1 X32.769 Y66.225 E1648.59535
G1 X32.769 Y65.518 E1648.61089
G1 X32.769 Y64.811 E1648.62643
G1 X32.769 Y64.104 E1648.64197
G1 X32.769 Y63.397 E1648.65751
G1 X32.769 Y62.689 E1648.67308
G1 X32.769 Y61.982 E1648.68862
G1 X32.769 Y61.275 E1648.70416
G1 X32.769 Y60.568 E1648.71970
G1 X32.769 Y59.861 E1648.73524
G1 X32.769 Y59.154 E1648.75078
G1 X32.769 Y58.447 E1648.76631
G1 X32.769 Y57.740 E1648.78185
G1 X32.769 Y57.033 E1648.79739
G1 X32.769 Y56.326 E1648.81293
G1 X32.769 Y55.618 E1648.82850
G1 X32.769 Y54.911 E1648.84404
G1 X32.769 Y54.204 E1648.85958
G1 X32.769 Y53.497 E1648.87512
G1 X32.769 Y52.790 E1648.89066
G1 X32.769 Y52.083 E1648.90620
G1 X32.769 Y51.376 E1648.92174
G1 X32.769 Y50.669 E1648.93728
G1 X32.769 Y49.962 E1648.95282
G1 X32.769 Y49.254 E1648.96838
G1 X32.769 Y48.547 E1648.98392
G1 X32.769 Y47.840 E1648.99946
G1 X32.769 Y47.133 E1649.01500
G1 X32.769 Y46.426 E1649.03054
G1 X32.769 Y45.719 E1649.04608
G1 X32.769 Y45.012 E1649.06162
G1 X32.769 Y44.305 E1649.07716
G1 X32.769 Y43.598 E1649.09270
G1 X32.769 Y42.890 E1649.10826
G1 X32.769 Y42.183 E1649.12380
G1 X32.769 Y41.476 E1649.13934
G1 X32.769 Y40.769 E1649.15488
G1 X32.769 Y40.062 E1649.17042
G1 X32.769 Y39.355 E1649.18596
G1 X32.954 Y38.817 E1649.20290
;LAYER:12
G0 F10500 X32.863 Y38.750 Z4.985
;TYPE:WALL-OUTER
G1 F1800 X32.863 Y117.250 E1651.54090
G1 X51.941 Y117.250 E1652.10911
G1 X54.941 Y114.250 E1652.23547
G1 X105.560 Y114.250 E1653.74307
G1 X108.560 Y117.250 E1653.86943
G1 X134.500 Y117.250 E1654.64201
G1 X134.500 Y96.310 E1655.26568
G1 X131.500 Y93.310 E1655.39204
G1 X131.500 Y62.690 E1656.30400
G1 X134.500 Y59.690 E1656.43036
G1 X134.500 Y38.750 E1657.05403
G1 X108.560 Y38.750 E1657.82661
G1 X105.560 Y41.750 E1657.95297
G1 X54.941 Y41.750 E1659.46057
G1 X51.941 Y38.750 E1659.58693
G1 X32.863 Y38.750 E1660.15514
G0 F10500 X32.143 Y38.250
G1 F1800 X52.147 Y38.250 E1660.75093
G1 X55.147 Y41.250 E1660.87729
G1 X105.354 Y41.250 E1662.37262
G1 X108.354 Y38.250 E1662.49898
G1 X135.000 Y38.250 E1663.29259
G1 X135.000 Y59.896 E1663.93728
G1 X132.000 Y62.896 E1664.06364
G1 X132.000 Y93.103 E1664.96331
G1 X135.000 Y96.103 E1665.08967
G1 X135.000 Y117.750 E1665.73439
G1 X108.354 Y117.750 E1666.52800
G1 X105.354 Y114.750 E1666.65436
G1 X55.147 Y114.750 E1668.14969
G1 X52.147 Y117.750 E1668.27605
G1 X32.143 Y117.750 E1668.87184
G1 X32.143 Y38.250 E1671.23962
G0 F10500 X32.413 Y38.424
;TYPE:SKIN
G1 F3000 X32.502 Y38.866 E1671.25119
G1 X32.502 Y39.573 E1671.26673
G1 X32.502 Y40.280 E1671.28227
G1 X32.502 Y40.987 E1671.29781
G1 X32.502 Y41.694 E1671.31335
G1 X32.502 Y42.402 E1671.32896
G1 X32.502 Y43.109 E1671.34454
G1 X32.502 Y43.816 E1671.36012
G1 X32.502 Y44.523 E1671.37570
G1 X32.502 Y45.230 E1671.39129
G1 X32.502 Y45.937 E1671.40683
G1 X32.502 Y46.644 E1671.42237
G1 X32.502 Y47.351 E1671.43791
G1 X32.502 Y48.058 E1671.45345
G1 X32.502 Y48.766 E1671.46905
G1 X32.502 Y49.473 E1671.48463
G1 X32.502 Y50.180 E1671.50021
G1 X32.502 Y50.887 E1671.51580
G1 X32.502 Y51.594 E1671.53138
G1 X32.502 Y52.301 E1671.54692
G1 X32.502 Y53.008 E1671.56246
G1 X32.502 Y53.715 E1671.57800
G1 X32.502 Y54.422 E1671.59354
G1 X32.502 Y55.129 E1671.60908
G1 X32.502 Y55.837 E1671.62468
G1 X32.502 Y56.544 E1671.64026
G1 X32.502 Y57.251 E1671.65585
G1 X32.502 Y57.958 E1671.67143
G1 X32.502 Y58.665 E1671.68697
G1 X32.502 Y59.372 E1671.70251
G1 X32.502 Y60.079 E1671.71805
G1 X32.502 Y60.786 E1671.73359
G1 X32.502 Y61.493 E1671.74913
G1 X32.502 Y62.201 E1671.76473
G1 X32.502 Y62.908 E1671.78031
G1 X32.502 Y63.615 E1671.79590
G1 X32.502 Y64.322 E1671.81148
G1 X32.502 Y65.029 E1671.82706
G1 X32.502 Y65.736 E1671.84260
G1 X32.502 Y66.443 E1671.85814
G1 X32.502 Y67.150 E1671.87368
G1 X32.502 Y67.857 E1671.88922
G1 X32.502 Y68.565 E1671.90482
G1 X32.502 Y69.272 E1671.92041
G1 X32.502 Y69.979 E1671.93599
G1 X32.502 Y70.686 E1671.95157
G1 X32.502 Y71.393 E1671.96715
G1 X32.502 Y72.100 E1671.98269
G1 X32.502 Y72.807 E1671.99823
G1 X32.502 Y73.514 E1672.01377
G1 X32.502 Y74.221 E1672.02931
G1 X32.502 Y74.928 E1672.04485
G1 X32.502 Y75.636 E1672.06046
G1 X32.502 Y76.343 E1672.07604
G1 X32.502 Y77.050 E1672.09162
G1 X32.502 Y77.757 E1672.10720
G1 X32.502 Y78.464 E1672.12278
G1 X32.502 Y79.171 E1672.13832
G1 X32.502 Y79.878 E1672.15386
G1 X32.502 Y80.585 E1672.16940
G1 X32.502 Y81.292 E1672.18494
G1 X32.502 Y82.000 E1672.20055
G1 X32.502 Y82.707 E1672.21613
G1 X32.502 Y83.414 E1672.23171
G1 X32.502 Y84.121 E1672.24730
G1 X32.502 Y84.828 E1672.26288
G1 X32.502 Y85.535 E1672.27842
G1 X32.502 Y86.242 E1672.29396
G1 X32.502 Y86.949 E1672.30950
G1 X32.502 Y87.656 E1672.32504
G1 X32.502 Y88.364 E1672.34064
G1 X32.502 Y89.071 E1672.35622
G1 X32.502 Y89.778 E1672.37181
G1 X32.502 Y90.485 E1672.38739
G1 X32.502 Y91.192 E1672.40297
G1 X32.502 Y91.899 E1672.41851
G1 X32.502 Y92.606 E1672.43405
G1 X32.502 Y93.313 E1672.44959
G1 X32.502 Y94.020 E1672.46513
G1 X32.502 Y94.727 E1672.48067
G1 X32.502 Y95.435 E1672.49627
G1 X32.502 Y96.142 E1672.51186
G1 X32.502 Y96.849 E1672.52744
G1 X32.502 Y97.556 E1672.54302
G1 X32.502 Y98.263 E1672.55860
G1 X32.502 Y98.970 E1672.57414
G1 X32.502 Y99.677 E1672.58968
G1 X32.502 Y100.384 E1672.60522
G1 X32.502 Y101.091 E1672.62076
G1 X32.502 Y101.799 E1672.63637
G1 X32.502 Y102.506 E1672.65195
G1 X32.502 Y103.213 E1672.66753
G1 X32.502 Y103.920 E1672.68311
G1 X32.502 Y104.627 E1672.69869
G1 X32.502 Y105.334 E1672.71423
G1 X32.502 Y106.041 E1672.72977
G1 X32.502 Y106.748 E1672.74531
G1 X32.502 Y107.455 E1672.76085
G1 X32.502 Y108.163 E1672.77646
G1 X32.502 Y108.870 E1672.79204
G1 X32.502 Y109.577 E1672.80762
G1 X32.502 Y110.284 E1672.82320
G1 X32.502 Y110.991 E1672.83879
G1 X32.502 Y111.698 E1672.85433
G1 X32.502 Y112.405 E1672.86987
G1 X32.502 Y113.112 E1672.88541
G1 X32.502 Y113.819 E1672.90095
G1 X32.502 Y114.526 E1672.91649
G1 X32.502 Y115.234 E1672.93209
G1 X32.502 Y115.941 E1672.94767
G1 X32.502 Y116.648 E1672.96325
G1 X32.688 Y117.187 E1672.98024
;LAYER:13
G0 F10500 X32.597 Y117.250 Z5.365
;TYPE:WALL-OUTER
G1 F1800 X51.941 Y117.250 E1673.55637
G1 X54.941 Y114.250 E1673.68273
G1 X105.560 Y114.250 E1675.19033
G1 X108.560 Y117.250 E1675.31669
G1 X134.500 Y117.250 E1676.08927
G1 X134.500 Y96.310 E1676.71294
G1 X131.500 Y93.310 E1676.83930
G1 X131.500 Y62.690 E1677.75126
G1 X134.500 Y59.690 E1677.87762
G1 X134.500 Y38.750 E1678.50129
G1 X108.560 Y38.750 E1679.27387
G1 X105.560 Y41.750 E1679.40023
G1 X54.941 Y41.750 E1680.90783
G1 X51.941 Y38.750 E1681.03419
G1 X32.597 Y38.750 E1681.61032
G1 X32.597 Y117.250 E1683.94832
G0 F10500 X31.877 Y117.750
G1 F1800 X31.877 Y38.250 E1686.31610
G1 X52.147 Y38.250 E1686.91981
G1 X55.147 Y41.250 E1687.04617
G1 X105.354 Y41.250 E1688.54150
G1 X108.354 Y38.250 E1688.66786
G1 X135.000 Y38.250 E1689.46147
G1 X135.000 Y59.896 E1690.10616
G1 X132.000 Y62.896 E1690.23252
G1 X132.000 Y93.103 E1691.13219
G1 X135.000 Y96.103 E1691.25855
G1 X135.000 Y117.750 E1691.90327
G1 X108.354 Y117.750 E1692.69688
G1 X105.354 Y114.750 E1692.82324
G1 X55.147 Y114.750 E1694.31857
G1 X52.147 Y117.750 E1694.44493
G1 X31.877 Y117.750 E1695.04864
G0 F10500 X32.052 Y117.500
;TYPE:SKIN
G1 F3000 X32.236 Y116.962 E1695.06415
G1 X32.236 Y116.255 E1695.07965
G1 X32.236 Y115.548 E1695.09515
G1 X32.236 Y114.841 E1695.11065
G1 X32.236 Y114.134 E1695.12614
G1 X32.236 Y113.426 E1695.14166
G1 X32.236 Y112.719 E1695.15720
G1 X32.236 Y112.012 E1695.17270
G1 X32.236 Y111.305 E1695.18820
G1 X32.236 Y110.598 E1695.20370
G1 X32.236 Y109.891 E1695.21919
G1 X32.236 Y109.184 E1695.23469
G1 X32.236 Y108.477 E1695.25019
G1 X32.236 Y107.770 E1695.26569
G1 X32.236 Y107.063 E1695.28119
G1 X32.236 Y106.355 E1695.29671
G1 X32.236 Y105.648 E1695.31220
G1 X32.236 Y104.941 E1695.32770
G1 X32.236 Y104.234 E1695.34320
G1 X32.236 Y103.527 E1695.35870
G1 X32.236 Y102.820 E1695.37420
G1 X32.236 Y102.113 E1695.38969
G1 X32.236 Y101.406 E1695.40519
G1 X32.236 Y100.699 E1695.42069
G1 X32.236 Y99.991 E1695.43621
G1 X32.236 Y99.284 E1695.45171
G1 X32.236 Y98.577 E1695.46720
G1 X32.236 Y97.870 E1695.48270
G1 X32.236 Y97.163 E1695.49820
G1 X32.236 Y96.456 E1695.51370
G1 X32.236 Y95.749 E1695.52920
G1 X32.236 Y95.042 E1695.54469
G1 X32.236 Y94.335 E1695.56019
G1 X32.236 Y93.628 E1695.57569
G1 X32.236 Y92.920 E1695.59121
G1 X32.236 Y92.213 E1695.60671
G1 X32.236 Y91.506 E1695.62220
G1 X32.236 Y90.799 E1695.63770
G1 X32.236 Y90.092 E1695.65320
G1 X32.236 Y89.385 E1695.66870
G1 X32.236 Y88.678 E1695.68420
